!!!!SEGMENT: pl-kk--kk-i-311_anonim--veni-creator.krn
!!!cenid: 17xx:2111
!!!COM: Anonim
!!!COM-rismid: pe30004985
!!!CDT:
!!!CNT:
!!!OTL: Veni creator
!!!PDT:
!!!AGN: Sacred
!!!SMS-siglum: PL-Kk
!!!SMS-shelfmark: Kk.I.311
!!!SMS-shelfwork: W
!!!SMS-variant:
!!!SMS-altvar:
!!!NIFC-rismid: 1001147313
!!!URL-scan: http://repozytorium.nifc.pl/skany/pl-kk-nut--i-311
!!!ONB-nifc:
**kern	**text	**text	**kern	**text	**text	**kern	**text	**text	**kern	**text	**text	**kern	**text	**text
*part5	*part5	*part5	*part4	*part4	*part4	*part3	*part3	*part3	*part2	*part2	*part2	*part1	*part1	*part1
*staff5	*staff5	*staff5	*staff4	*staff4	*staff4	*staff3	*staff3	*staff3	*staff2	*staff2	*staff2	*staff1	*staff1	*staff1
*Iempty	*	*	*Iempty	*	*	*Itenor	*	*	*Ialto	*	*	*Ivox	*	*
*I"Baſso Ripieno.	*	*	*I"Baſso.	*	*	*I"Tenore.	*	*	*I"Alto.	*	*	*I"Canto.	*	*
*I'B rip	*	*	*I'B	*	*	*I'T	*	*	*I'A	*	*	*I'S	*	*
*clefF4	*	*	*clefF4	*	*	*clefC4	*	*	*clefC3	*	*	*clefC1	*	*
*k[]	*	*	*k[]	*	*	*k[]	*	*	*k[]	*	*	*k[]	*	*
*C:	*	*	*C:	*	*	*C:	*	*	*C:	*	*	*C:	*	*
*M2/1	*	*	*M2/1	*	*	*M2/1	*	*	*M2/1	*	*	*M2/1	*	*
*met(C|)	*	*	*met(C|)	*	*	*met(C|)	*	*	*met(C|)	*	*	*met(C|)	*	*
*>[A,A,B,B,C,C,D,D]	*	*	*>[A,A,B,B,C,C,D,D]	*	*	*>[A,A,B,B,C,C,D,D]	*	*	*>[A,A,B,B,C,C,D,D]	*	*	*>[A,A,B,B,C,C,D,D]	*	*
=1-	=1-	=1-	=1-	=1-	=1-	=1-	=1-	=1-	=1-	=1-	=1-	=1-	=1-	=1-
*>A	*	*	*>A	*	*	*>A	*	*	*>A	*	*	*>A	*	*
!	!	!	!LO:TX:t=P:problem:kreska pseudotaktowa	!	!	!LO:TX:t=P:problem:kreska pseudotaktowa	!	!	!LO:TX:a:t=6	!	!	!	!	!
!LO:TX:a:t=P:problem:przed kluczem małe nutki, jakby akord g-moll [GG BB D]	!	!	!LO:TX:a:t=P:problem:po kluczu małe nutki, jakby akord g-moll [G B d]	!	!	!	!	!	!	!	!	!	!	!
!LO:TX:a:t=I.	!	!	!LO:TX:a:t=I.	!	!	!	!	!	!	!	!	!	!	!
1r	.	.	1r	.	.	1G	Ve-	Qui	00r	.	.	0r	.	.
*	*	*	*	*	*	*lig	*	*	*	*	*	*	*	*
1D	1. Ve-	2. Qui	1D	Ve-	Qui	1A	-ni	di-	.	.	.	.	.	.
=2-	=2-	=2-	=2-	=2-	=2-	=2-	=2-	=2-	=2-	=2-	=2-	=2-	=2-	=2-
*2\right	*	*	*	*	*	*	*	*	*	*	*	*	*	*
!	!	!	!	!	!	!	!	!	!	!	!	!LO:TX:t=P:problem:kreska pseudotaktowa	!	!
2E\	-ni	di-	2E\	-ni	di-	1G	.	.	.	.	.	1g	Ve-	Qui
!LO:TX:t=P:problem:kreska pseudotaktowa	!	!	!LO:TX:t=P:problem:kreska pseudotaktowa	!	!	!	!	!	!	!	!	!	!	!
2E\	Cre-	-ce-	2E\	Cre-	-ce-	.	.	.	.	.	.	.	.	.
*	*	*	*	*	*	*Xlig	*	*	*	*	*	*	*	*
!	!	!	!	!	!	!LO:TX:t=P:problem:kreska pseudotaktowa	!	!	!	!	!	!	!	!
4D\	-a-	-ris	4D\	-a-	-ris	1F#X	.	.	.	.	.	2a\	-ni	di-
4E\	.	.	4E\	.	.	.	.	.	.	.	.	.	.	.
!	!	!	!LO:TX:a:t=P:problem:# above	!	!	!	!	!	!	!	!	!LO:TX:t=P:problem:kreska pseudotaktowa	!	!
4F#X\	.	Pa-	4F#X\	.	Pa-	.	.	.	.	.	.	2a\	Cre-	-ce-
!LO:TX:t=P:problem:kreska pseudotaktowa	!	!	!LO:TX:t=P:problem:kreska pseudotaktowa	!	!	!	!	!	!	!	!	!	!	!
4D\	.	.	4D\	.	.	.	.	.	.	.	.	.	.	.
=3-	=3-	=3-	=3-	=3-	=3-	=3-	=3-	=3-	=3-	=3-	=3-	=3-	=3-	=3-
!	!	!	!	!	!	!	!	!	!LO:TX:t=P:problem:kreska pseudotaktowa	!	!	!	!	!
4G\	.	.	4G\	.	-ra-	1G	Cre-	-cens	0r	.	.	4g\	-a-	-ris
!	!	!	!LO:TX:a:t=P:problem:# above	!	!	!	!	!	!	!	!	!	!	!
4F#X\	.	.	4F#X\	.	.	.	.	.	.	.	.	4a\	.	.
4G\	.	.	4G\	.	.	.	.	.	.	.	.	4b\	.	Pa-
!LO:TX:t=P:problem:kreska pseudotaktowa	!	!	!LO:TX:t=P:problem:kreska pseudotaktowa	!	!	!	!	!	!	!	!	!LO:TX:t=P:problem:kreska pseudotaktowa	!	!
4E\	.	.	4E\	.	.	.	.	.	.	.	.	4g\	.	.
2F#X\	.	.	2F#X\	.	.	1A	-a-	.	.	.	.	2.dd\	.	-ra-
!LO:TX:t=P:problem:kreska pseudotaktowa	!	!	!LO:TX:t=P:problem:kreska pseudotaktowa	!	!	!	!	!	!	!	!	!	!	!
2D\	tor	-ra-	2D/	tor	.	.	.	.	.	.	.	.	.	.
!	!	!	!	!	!	!	!	!	!	!	!	!LO:TX:t=P:problem:kreska pseudotaktowa	!	!
.	.	.	.	.	.	.	.	.	.	.	.	4cc\	.	.
=4-	=4-	=4-	=4-	=4-	=4-	=4-	=4-	=4-	=4-	=4-	=4-	=4-	=4-	=4-
!	!	!	!	!	!	!LO:TX:t=P:problem:kreska pseudotaktowa	!	!	!	!	!	!	!	!
2.G\	Spi-	.	2.G\	Spi-	.	1G	-tor	Pa-	1d	Ve-	Qui	4b\	.	.
.	.	.	.	.	.	.	.	.	.	.	.	4cc\	.	.
.	.	.	.	.	.	.	.	.	.	.	.	4b\	.	.
!LO:TX:t=P:problem:kreska pseudotaktowa	!	!	!LO:TX:t=P:problem:kreska pseudotaktowa	!	!	!	!	!	!	!	!	!	!	!
!	!	!	!LO:N:acc=-	!	!	!	!	!	!	!	!	!	!	!
4Fn\	.	.	4Fn\	.	.	.	.	.	.	.	.	4a\	.	.
4E\	.	.	4E\	.	.	1c	Spi-	-ra-	2e\	-ni	di-	2g/	.	.
4D\	.	.	4D/	.	.	.	.	.	.	.	.	.	.	.
!	!	!	!	!	!	!	!	!	!LO:TX:t=P:problem:kreska pseudotaktowa	!	!	!LO:TX:t=P:problem:kreska pseudotaktowa	!	!
4E\	.	.	4E\	.	.	.	.	.	2e\	Cre-	-ce-	2cc\	-tor	.
!	!	!	!LO:TX:t=P:problem:kreska pseudotaktowa	!	!	!	!	!	!	!	!	!	!	!
4C/	.	.	4C/	.	.	.	.	.	.	.	.	.	.	.
=5-	=5-	=5-	=5-	=5-	=5-	=5-	=5-	=5-	=5-	=5-	=5-	=5-	=5-	=5-
2.G\	.	.	2.G\	.	.	1.d	.	.	4d\	-a-	-ris	4b\	Spi-	.
.	.	.	.	.	.	.	.	.	4e\	.	.	4g\	.	.
!	!	!	!	!	!	!	!	!	!LO:N:acc=-	!	!	!	!	!
.	.	.	.	.	.	.	.	.	4fn\	.	Pa-	1cc	.	.
!LO:TX:t=P:problem:kreska pseudotaktowa	!	!	!LO:TX:t=P:problem:kreska pseudotaktowa	!	!	!	!	!	!LO:TX:t=P:problem:kreska pseudotaktowa	!	!	!	!	!
4G\	-ri-	-cli-	4G\	-ri-	-cli-	.	.	.	4d\	.	.	.	.	.
!LO:TX:a:t=P:problem:rozdzielacz słów:global	!	!	!	!	!	!	!	!	!	!	!	!	!	!
2G,<\	-tus	-tus	2G\	-t(us)	-t(us)	.	.	.	2.g\	.	-ra-	.	.	.
!LO:TX:t=P:problem:kreska pseudotaktowa	!	!	!LO:TX:t=P:problem:kreska pseudotaktowa	!	!	!	!	!	!	!	!	!LO:TX:t=P:problem:kreska pseudotaktowa	!	!
2G\	men-	al-	2G\	men-	al-	2d\	-ri-	-cli-	.	.	.	2b\	ri-	-cli-
!	!	!	!	!	!	!	!	!	!LO:TX:t=P:problem:kreska pseudotaktowa	!	!	!	!	!
.	.	.	.	.	.	.	.	.	4f\	.	.	.	.	.
=6-	=6-	=6-	=6-	=6-	=6-	=6-	=6-	=6-	=6-	=6-	=6-	=6-	=6-	=6-
!	!	!	!	!	!	!LO:TX:t=P:problem:kreska pseudotaktowa	!	!	!	!	!	!	!	!
2C/	-tes	-tiſ-	2C/	-tes	-tiſ-	1c	-tus	-t(us)	4e\	.	.	2cc\	-t(us)	-t(us)
.	.	.	.	.	.	.	.	.	4f\	.	.	.	.	.
!LO:TX:t=P:problem:kreska pseudotaktowa	!	!	!LO:TX:t=P:problem:kreska pseudotaktowa	!	!	!	!	!	!	!	!	!LO:TX:t=P:problem:kreska pseudotaktowa	!	!
2C/	tu-	-si-	2C/	tu-	-si-	.	.	.	4e\	.	.	2cc\	men-	al-
!	!	!	!	!	!	!	!	!	!LO:TX:t=P:problem:kreska pseudotaktowa	!	!	!	!	!
.	.	.	.	.	.	.	.	.	4d\	.	.	.	.	.
4E\	-o-	-mi	4E\	-o-	-mi	1c	men-	al-	4c/	.	.	2g/	-tes	-tiſ-
4D\	.	.	4D\	.	.	.	.	.	4c/	-tor	.	.	.	.
!	!	!	!	!	!	!	!	!	!	!	!	!LO:TX:t=P:problem:kreska pseudotaktowa	!	!
4E\	.	.	4E\	.	.	.	.	.	2.g\	Spi-	.	2g/	tu-	-si-
!	!	!	!LO:TX:t=P:problem:kreska pseudotaktowa	!	!	!	!	!	!	!	!	!	!	!
4F\	.	.	4F\	.	.	.	.	.	.	.	.	.	.	.
=7-	=7-	=7-	=7-	=7-	=7-	=7-	=7-	=7-	=7-	=7-	=7-	=7-	=7-	=7-
!	!	!	!	!	!	!LO:TX:t=P:problem:kreska pseudotaktowa	!	!	!	!	!	!	!	!
2G\	.	do-	2G\	.	do-	1G	-tes	-tiſ-	.	.	.	4b\	-o-	-mi
.	.	.	.	.	.	.	.	.	4d\	.	.	4a\	.	.
!LO:TX:t=P:problem:kreska pseudotaktowa	!	!	!LO:SIC:v:t=custos D	!	!	!	!	!	!	!	!	!	!	!
2G,<\	rum	-num	2G\	rum	-nu(m)	.	.	.	1g	.	.	4b\	.	.
.	.	.	.	.	.	.	.	.	.	.	.	4cc\	.	.
!LO:LB:g=original	!	!	!LO:LB:g=original	!	!	!	!	!	!	!	!	!	!	!
2r	.	.	2r	.	.	1A	tu-	-si-	.	.	.	1dd	.	do-
!	!	!	!LO:TX:t=P:problem:kreska pseudotaktowa	!	!	!	!	!	!LO:TX:t=P:problem:kreska pseudotaktowa	!	!	!	!	!
2D\	men-	al-	2D/	men-	al-	.	.	.	2f#X\	ri-	-cli-	.	.	.
=8-	=8-	=8-	=8-	=8-	=8-	=8-	=8-	=8-	=8-	=8-	=8-	=8-	=8-	=8-
!	!	!	!	!	!	!	!	!	!	!	!	!LO:TX:t=P:problem:kreska pseudotaktowa	!	!
2GG/	-tes	-tiſ-	2GG/	-tes	-tiſ-	1B	-o-	-mi	2g\	-tus	-t(us)	1dd	rum	-nu(m)
!LO:TX:t=P:problem:kreska pseudotaktowa	!	!	!	!	!	!	!	!	!LO:TX:t=P:problem:kreska pseudotaktowa	!	!	!	!	!
2GG/	tu-	-si-	2GG/	tu-	-si-	.	.	.	2g\	men-	al-	.	.	.
*	*	*	*	*	*	*lig	*	*	*	*	*	*	*	*
4BB/	-o-	-mi	4BB/	-o-	-mi	1d	-rum	do-	2d\	-tes	-tiſ-	2r	.	.
4GG/	.	.	4GG/	.	.	.	.	.	.	.	.	.	.	.
!	!	!	!	!	!	!	!	!	!LO:TX:t=P:problem:kreska pseudotaktowa	!	!	!	!	!
4AA/	.	.	4AA/	.	.	.	.	.	2d\	tu-	-si-	2dd\	men-	al-
!	!	!	!LO:TX:t=P:problem:kreska pseudotaktowa	!	!	!	!	!	!	!	!	!	!	!
4BB/	.	.	4BB/	.	.	.	.	.	.	.	.	.	.	.
!	!	!	!	!	!	!	!	!	!	!	!	!LO:LB:g=original	!	!
=9-	=9-	=9-	=9-	=9-	=9-	=9-	=9-	=9-	=9-	=9-	=9-	=9-	=9-	=9-
1C	.	do-	1C	.	do-	1c	.	.	4e\	-o-	-mi	2g/	-tes	-tiſ-
.	.	.	.	.	.	.	.	.	4d\	.	.	.	.	.
.	.	.	.	.	.	.	.	.	4e\	.	.	2g/	tu-	-si-
.	.	.	.	.	.	.	.	.	4fny\	.	.	.	.	.
!	!	!	!	!	!	!	!	!	!	!	!	!LO:TX:t=P:problem:kreska pseudotaktowa	!	!
*	*	*	*	*	*	*Xlig	*	*	*	*	*	*	*	*
*	*	*	*	*	*	*lig	*	*	*	*	*	*	*	*
!	!	!	!	!	!	!	!	!	!LO:TX:t=P:problem:kreska pseudotaktowa	!	!	!	!	!
2GG,</	-rum	-num	2GG/	-ru(m)	-nu(m)	1d	Vi-	-nu(m)	1g	.	do-	4b\	-o-	-mi
.	.	.	.	.	.	.	.	.	.	.	.	4g\	.	.
!LO:TX:t=P:problem:kreska pseudotaktowa	!	!	!LO:TX:t=P:problem:kreska pseudotaktowa	!	!	!	!	!	!	!	!	!	!	!
2G\	tu-	do-	2G\	tu-	do-	.	.	.	.	.	.	4a\	.	.
.	.	.	.	.	.	.	.	.	.	.	.	4b\	.	.
!	!	!	!	!	!	!	!	!	!LO:LB:g=original	!	!	!	!	!
=10-	=10-	=10-	=10-	=10-	=10-	=10-	=10-	=10-	=10-	=10-	=10-	=10-	=10-	=10-
!	!	!	!	!	!	!LO:TX:t=P:problem:kreska pseudotaktowa	!	!	!	!	!	!LO:TX:t=P:problem:kreska pseudotaktowa	!	!
2E\	-o-	.	2E\	-o-	-nu(m)	1e	.	.	2g\	ru(m)	-nu(m)	1cc	.	.
!LO:TX:t=P:problem:kreska pseudotaktowa	!	!	!LO:TX:t=P:problem:kreska pseudotaktowa	!	!	!	!	!	!	!	!	!	!	!
2C,</	-rum	-num	2C/	-ru(m)	De-	.	.	.	2g\	tu-	De-	.	.	.
!	!	!	!	!	!	!	!	!	!LO:TX:t=P:problem:kreska pseudotaktowa	!	!	!	!	!
*	*	*	*	*	*	*Xlig	*	*	*	*	*	*	*	*
4D\	vi-	De-	4D\	Vi-	-i	1.d	.	.	2f\	-o-	-i	2a\	rum	do-
4E\	.	-i	4E\	.	.	.	.	.	.	.	.	.	.	.
(4F\	.	al-	4F\	.	al-	.	.	.	2f\	-rum	al-	1a	ui-	-num
!	!	!	!LO:TX:t=P:problem:kreska pseudotaktowa	!	!	!	!	!	!	!	!	!	!	!
4G\)	.	.	4G\	.	.	.	.	.	.	.	.	.	.	.
=11-	=11-	=11-	=11-	=11-	=11-	=11-	=11-	=11-	=11-	=11-	=11-	=11-	=11-	=11-
2.A\	.	-tiſ-	2.A\	.	-tiſ-	.	.	.	2.e\	vi-	-tiſ-	.	.	.
!	!	!	!	!	!	!	!	!	!	!	!	!LO:TX:t=P:problem:kreska pseudotaktowa	!	!
.	.	.	.	.	.	2c#X\	-si-	De-	.	.	.	2a\	si-	DE-
!LO:TX:t=P:problem:kreska pseudotaktowa	!	!	!	!	!	!	!	!	!	!	!	!	!	!
4A\	-si-	-si-	4A\	-si-	-si-	.	.	.	4e\	-si-	-ſi-	.	.	.
!	!	!	!	!	!	!LO:LB:g=original	!	!	!	!	!	!	!	!
!	!	!	!	!	!	!LO:TX:t=P:problem:kreska pseudotaktowa	!	!	!LO:TX:t=P:problem:kreska pseudotaktowa	!	!	!	!	!
2D,<\	-ta	-mi	2D/	-ta	-mi	1d	-ta	-i	1d	-ta	-mi	2a\	-ta	-I.
!	!	!	!LO:TX:t=P:problem:kreska pseudotaktowa	!	!	!	!	!	!	!	!	!LO:TX:t=P:problem:kreska pseudotaktowa	!	!
2G\	im-	Fons	2G\	im-	Fons	.	.	.	.	.	.	2r	.	.
=12-	=12-	=12-	=12-	=12-	=12-	=12-	=12-	=12-	=12-	=12-	=12-	=12-	=12-	=12-
!	!	!	!	!	!	!	!	!	!	!	!	!LO:TX:t=P:problem:kreska pseudotaktowa	!	!
2C,</	-ple	vi-	2C/	-ple	vi-	1cn	im-	Fons	1r	.	.	0rg	.	.
!LO:TX:t=P:problem:kreska pseudotaktowa	!	!	!LO:TX:t=P:problem:kreska pseudotaktowa	!	!	!	!	!	!	!	!	!	!	!
2c\	su-	-v(us)	2c\	Su-	-vus	.	.	.	.	.	.	.	.	.
*	*	*	*	*	*	*lig	*	*	*	*	*	*	*	*
2c\	-per-	ig-	2c\	-per-	ig-	1d	-ple	Vi-	2r	.	.	.	.	.
!	!	!	!LO:TX:t=P:problem:kreska pseudotaktowa	!	!	!	!	!	!LO:TX:t=P:problem:kreska pseudotaktowa	!	!	!	!	!
2B\	-na	-nis	2B\	-na	-nis	.	.	.	2d\	im-	fons	.	.	.
=13-	=13-	=13-	=13-	=13-	=13-	=13-	=13-	=13-	=13-	=13-	=13-	=13-	=13-	=13-
!	!	!	!	!	!	!LO:TX:t=P:problem:kreska pseudotaktowa	!	!	!	!	!	!	!	!
2.c\	gra-	Cha-	2.c\	gra-	cha-	1e	.	.	2G/	-ple	vi-	2rf	.	.
!	!	!	!	!	!	!	!	!	!	!	!	!LO:TX:t=P:problem:kreska pseudotaktowa	!	!
.	.	.	.	.	.	.	.	.	2g\	Su-	-uus	2g/	im-	fons
!	!	!	!LO:TX:t=P:problem:kreska pseudotaktowa	!	!	!	!	!	!	!	!	!	!	!
4B\	.	.	4B\	.	.	.	.	.	.	.	.	.	.	.
*	*	*	*	*	*	*Xlig	*	*	*	*	*	*	*	*
*	*	*	*	*	*	*lig	*	*	*	*	*	*	*	*
2.A\	.	.	2.A\	.	.	1c	Su-	-vus	2g\	-per-	i-	2c/	-ple	ui-
!	!	!	!	!	!	!	!	!	!LO:TX:t=P:problem:kreska pseudotaktowa	!	!	!	!	!
.	.	.	.	.	.	.	.	.	2f#X\	-na	-gnis	2cc\	Su-	-vus
!LO:TX:t=P:problem:kreska pseudotaktowa	!	!	!LO:TX:t=P:problem:kreska pseudotaktowa	!	!	!	!	!	!	!	!	!	!	!
4A\	-ti-	-ri-	4A\	-ti-	-ri-	.	.	.	.	.	.	.	.	.
=14-	=14-	=14-	=14-	=14-	=14-	=14-	=14-	=14-	=14-	=14-	=14-	=14-	=14-	=14-
!	!	!	!	!	!	!	!	!	!	!	!	!LO:TX:a:t=g	!	!
2G\	-a	-tas	2G\	-a	-tas	1B	.	.	4g\	gra-	cha-	2g\	-per-	i-
.	.	.	.	.	.	.	.	.	4f#X\	.	.	.	.	.
!	!	!	!	!	!	!	!	!	!	!	!	!LO:TX:t=P:problem:kreska pseudotaktowa	!	!
1G	gra-	Cha-	1G	gra-	cha-	.	.	.	4g\	.	.	2b\	-na	-gnis
.	.	.	.	.	.	.	.	.	4e\	.	.	.	.	.
*	*	*	*	*	*	*Xlig	*	*	*	*	*	*	*	*
*	*	*	*	*	*	*lig	*	*	*	*	*	*	*	*
.	.	.	.	.	.	1A	-per-	i-	2.a\	.	.	4cc\	gra-	cha-
.	.	.	.	.	.	.	.	.	.	.	.	4b\	.	.
!LO:TX:t=P:problem:kreska pseudotaktowa	!	!	!LO:TX:t=P:problem:kreska pseudotaktowa	!	!	!	!	!	!	!	!	!	!	!
2F#X\	-ti-	-ri-	2F#X\	-ti-	-ri-	.	.	.	.	.	.	4cc\	.	.
!	!	!	!	!	!	!	!	!	!LO:TX:t=P:problem:kreska pseudotaktowa	!	!	!LO:TX:t=P:problem:kreska pseudotaktowa	!	!
.	.	.	.	.	.	.	.	.	4a\	-ti-	ri-	4a\	.	.
!LO:LB:g=original	!	!	!LO:LB:g=original	!	!	!	!	!	!	!	!	!	!	!
=15-	=15-	=15-	=15-	=15-	=15-	=15-	=15-	=15-	=15-	=15-	=15-	=15-	=15-	=15-
!LO:TX:t=P:problem:kreska pseudotaktowa	!	!	!LO:TX:t=P:problem:kreska pseudotaktowa	!	!	!	!	!	!	!	!	!	!	!
1G	-â	-tas	1G	-a	-tas	1G	.	.	2d\	-a	-tas	2b\	.	.
.	.	.	.	.	.	.	.	.	2d\	im-	fons	2dd\	.	.
*	*	*	*	*	*	*Xlig	*	*	*	*	*	*	*	*
*	*	*	*	*	*	*lig	*	*	*	*	*	*	*	*
0r	.	.	0r	.	.	1c	-na	-gnis	2G/	-ple	Vi-	4ee\	.	.
.	.	.	.	.	.	.	.	.	.	.	.	4dd\	.	.
!	!	!	!	!	!	!	!	!	!LO:TX:t=P:problem:kreska pseudotaktowa	!	!	!	!	!
.	.	.	.	.	.	.	.	.	2g\	Su-	-uus	4cc\	.	.
!	!	!	!	!	!	!	!	!	!	!	!	!LO:TX:t=P:problem:kreska pseudotaktowa	!	!
.	.	.	.	.	.	.	.	.	.	.	.	4b\	.	.
=16-	=16-	=16-	=16-	=16-	=16-	=16-	=16-	=16-	=16-	=16-	=16-	=16-	=16-	=16-
!	!	!	!	!	!	!LO:TX:t=P:problem:kreska pseudotaktowa	!	!	!	!	!	!	!	!
.	.	.	.	.	.	1d	.	.	2g\	-per-	i-	2.a\	.	.
.	.	.	.	.	.	.	.	.	2f#X\	-na	-gnis	.	.	.
.	.	.	.	.	.	.	.	.	.	.	.	4a\	-ti-	-ri-
*	*	*	*	*	*	*Xlig	*	*	*	*	*	*	*	*
!	!	!	!	!	!	!	!	!	!	!	!	!LO:TX:t=P:problem:kreska pseudotaktowa	!	!
2r	.	.	2r	.	.	1G	gra-	cha-	2g\	gra-	cha-	1b	-a	-tas
!LO:TX:t=P:problem:kreska pseudotaktowa	!	!	!LO:TX:t=P:problem:kreska pseudotaktowa	!	!	!	!	!	!	!	!	!	!	!
2G\	quae	et	2G\	quae	Et	.	.	.	4d\	.	.	.	.	.
!	!	!	!	!	!	!	!	!	!LO:TX:t=P:problem:kreska pseudotaktowa	!	!	!	!	!
.	.	.	.	.	.	.	.	.	4e\	.	.	.	.	.
=17-	=17-	=17-	=17-	=17-	=17-	=17-	=17-	=17-	=17-	=17-	=17-	=17-	=17-	=17-
!	!	!	!	!	!	!	!	!	!LO:N:acc=-	!	!	!	!	!
2Fny\	tu	Spi-	2Fny\	tu	Spi-	1A	-ti-	-ri-	2.fn\	.	.	0r	.	.
!LO:TX:t=P:problem:kreska pseudotaktowa	!	!	!LO:TX:t=P:problem:kreska pseudotaktowa	!	!	!	!	!	!	!	!	!	!	!
2D\	cre-	-ri-	2D/	Cre-	-ri-	.	.	.	.	.	.	.	.	.
.	.	.	.	.	.	.	.	.	8g\L	.	.	.	.	.
!	!	!	!	!	!	!	!	!	!LO:TX:t=P:problem:kreska pseudotaktowa	!	!	!	!	!
.	.	.	.	.	.	.	.	.	8f\J	.	.	.	.	.
!	!	!	!	!	!	!LO:TX:t=P:problem:kreska pseudotaktowa	!	!	!LO:TX:t=P:problem:kreska pseudotaktowa	!	!	!	!	!
4C/	-a-	-ta-	4C/	-a-	-ta-	1c	-a	-tas	1e	.	.	.	.	.
4D/	.	.	4D/	.	.	.	.	.	.	.	.	.	.	.
4E/	.	.	4E\	.	.	.	.	.	.	.	.	.	.	.
!LO:TX:t=P:problem:kreska pseudotaktowa	!	!	!	!	!	!	!	!	!	!	!	!	!	!
4F/	.	.	4F\	.	.	.	.	.	.	.	.	.	.	.
!	!	!	!	!	!	!	!	!	!LO:LB:g=original	!	!	!	!	!
=18-	=18-	=18-	=18-	=18-	=18-	=18-	=18-	=18-	=18-	=18-	=18-	=18-	=18-	=18-
*	*	*	*	*	*	*lig	*	*	*	*	*	*	*	*
4G\	.	.	4G\	.	.	1B	q(u)ae	et	2d\	.	.	2r	.	.
4F\	.	.	4F\	.	.	.	.	.	.	.	.	.	.	.
!	!	!	!	!	!	!	!	!	!LO:TX:t=P:problem:kreska pseudotaktowa	!	!	!LO:TX:t=P:problem:kreska pseudotaktowa	!	!
4G\	.	.	4G\	.	.	.	.	.	2d\	-ti-	-ri-	2dd\	quae	et
!	!	!	!LO:TX:t=P:problem:kreska pseudotaktowa	!	!	!	!	!	!	!	!	!	!	!
4E\	.	.	4E\	.	.	.	.	.	.	.	.	.	.	.
!	!	!	!	!	!	!	!	!	!	!	!	!LO:LB:g=original	!	!
!	!	!	!	!	!	!	!	!	!LO:TX:t=P:problem:kreska pseudotaktowa	!	!	!	!	!
2.A\	.	-lis	2.A\	.	.	1c	.	.	1e	-a	-tas	2cc\	tu	Spi-
.	.	.	.	.	.	.	.	.	.	.	.	1a	cre-	-ri-
!LO:TX:t=P:problem:kreska pseudotaktowa	!	!	!	!	!	!	!	!	!	!	!	!	!	!
4G\	.	.	4G\	.	.	.	.	.	.	.	.	.	.	.
*	*	*	*	*	*	*Xlig	*	*	*	*	*	*	*	*
=19-	=19-	=19-	=19-	=19-	=19-	=19-	=19-	=19-	=19-	=19-	=19-	=19-	=19-	=19-
*	*	*	*	*	*	*lig	*	*	*	*	*	*	*	*
4F\	.	Un-	4F\	.	.	1A	tu	Spi-	1r	.	.	.	.	.
4E\	.	.	4E\	.	.	.	.	.	.	.	.	.	.	.
4F\	.	.	4F\	.	.	.	.	.	.	.	.	1dd	-a-	ta-
4D\	.	.	4D/	.	.	.	.	.	.	.	.	.	.	.
!	!	!	!LO:TX:t=P:problem:kreska pseudotaktowa	!	!	!LO:TX:t=P:problem:kreska pseudotaktowa	!	!	!	!	!	!	!	!
1E	.	-cti-	1E	.	.	1G	.	-[[ri]]-	2r	.	.	.	.	.
!	!	!	!	!	!	!	!	!	!LO:TX:t=P:problem:kreska pseudotaktowa	!	!	!LO:TX:t=P:problem:kreska pseudotaktowa	!	!
.	.	.	.	.	.	.	.	.	2g\	quae	et	2cc#X\	.	.
*	*	*	*	*	*	*Xlig	*	*	*	*	*	*	*	*
=20-	=20-	=20-	=20-	=20-	=20-	=20-	=20-	=20-	=20-	=20-	=20-	=20-	=20-	=20-
!LO:TX:t=P:problem:kreska pseudotaktowa	!	!	!LO:TX:t=P:problem:kreska pseudotaktowa	!	!	!	!	!	!	!	!	!LO:TX:t=P:problem:kreska pseudotaktowa	!	!
1D	-sti	-o	1D	-sti	-lis	1Fny	Cre-	-ri-	2d\	tu	Spi-	1dd	-ſti	-lis
.	.	.	.	.	.	.	.	.	2d\	Cre-	-ri-	.	.	.
2r	.	.	2r	.	.	1A	-a-	-ta-	4f\	-a-	-ta-	1r	.	.
.	.	.	.	.	.	.	.	.	4e\	.	.	.	.	.
!	!	!	!LO:TX:t=P:problem:kreska pseudotaktowa	!	!	!	!	!	!	!	!	!	!	!
2D\	quae	et	2D/	quae	et	.	.	.	4f\	.	.	.	.	.
!	!	!	!	!	!	!	!	!	!LO:TX:t=P:problem:kreska pseudotaktowa	!	!	!	!	!
.	.	.	.	.	.	.	.	.	4g\	.	.	.	.	.
=21-	=21-	=21-	=21-	=21-	=21-	=21-	=21-	=21-	=21-	=21-	=21-	=21-	=21-	=21-
*	*	*	*	*	*	*lig	*	*	*	*	*	*	*	*
2C/	tu	Spi-	2C/	Tu	Spi-	1A	-ſti	-lis	2e\	.	.	2r	.	.
!LO:TX:t=P:problem:kreska pseudotaktowa	!	!	!LO:TX:t=P:problem:kreska pseudotaktowa	!	!	!	!	!	!LO:TX:t=P:problem:kreska pseudotaktowa	!	!	!LO:TX:t=P:problem:kreska pseudotaktowa	!	!
2AA/	cre-	-ri-	2AA/	Cre-	-ri-	.	.	.	2f#X\	-sti	-lis	2ccny\	quae	et
4GG/	-a-	-ta-	4GG/	-a-	-ta-	1B	.	.	4g\	pe-	Vn-	2b\	tu	Spi-
4AA/	.	.	4AA/	.	.	.	.	.	4d\	.	.	.	.	.
4BB/	.	.	4BB/	.	.	.	.	.	1g	.	.	2g/	crea-	-ri-
!	!	!	!LO:TX:t=P:problem:kreska pseudotaktowa	!	!	!	!	!	!	!	!	!	!	!
4C/	.	.	4C/	.	.	.	.	.	.	.	.	.	.	.
*	*	*	*	*	*	*Xlig	*	*	*	*	*	*	*	*
=22-	=22-	=22-	=22-	=22-	=22-	=22-	=22-	=22-	=22-	=22-	=22-	=22-	=22-	=22-
!	!	!	!	!	!	!LO:TX:a:t=P:problem:rozdzielacz słów	!	!	!	!	!	!	!	!
1D	.	.	1D	.	.	1A,<	.	.	.	.	.	1dd	-a-	-ta-
!	!	!	!	!	!	!	!	!	!LO:TX:t=P:problem:kreska pseudotaktowa	!	!	!	!	!
.	.	.	.	.	.	.	.	.	2f#X\	-cto-	-cti-	.	.	.
2E\	.	.	2E\	.	.	1G	pec-	Vn-	2g\	-ra	-o	2b\	-ſti	-lis
!LO:TX:t=P:problem:kreska pseudotaktowa	!	!	!LO:TX:t=P:problem:kreska pseudotaktowa	!	!	!	!	!	!LO:TX:t=P:problem:kreska pseudotaktowa	!	!	!LO:TX:t=P:problem:kreska pseudotaktowa	!	!
2C/	-sti	-lis	2C/	-sti	-lis	.	.	.	2g\	cre-	Spi-	2cc\	cre-	un-
!	!	!	!	!	!	!LO:LB:g=original	!	!	!	!	!	!	!	!
=23-	=23-	=23-	=23-	=23-	=23-	=23-	=23-	=23-	=23-	=23-	=23-	=23-	=23-	=23-
1.D	pe-	un-	1.D	pe-	Vn-	2F#X/	.	.	2d\	-a-	-ri-	2a\	-a-	.
.	.	.	.	.	.	1G	.	.	2d\	-ſti	-talis	2b\	-ſti	.
.	.	.	.	.	.	.	.	.	2.d\	pe-	V-	2.a\	pe-	.
2D\	-cto-	-cti-	2D/	-cto-	-cti-	2F#X/	-to-	-cti-	.	.	.	.	.	.
.	.	.	.	.	.	.	.	.	4d\	-cto-	-ncti-	4a\	-cto-	cti-
=24-	=24-	=24-	=24-	=24-	=24-	=24-	=24-	=24-	=24-	=24-	=24-	=24-	=24-	=24-
0GGl;	-ra	-o.	0GGl;;	-ra	-o	0Gl;;	-ra	-o	0dl;<	-ra	-o	0bl;;	-ra	-o
!LO:LB:g=original	!	!	!LO:LB:g=original	!	!	!LO:LB:g=original	!	!	!LO:LB:g=original	!	!	!LO:LB:g=original	!	!
=25:|!|:	=25:|!|:	=25:|!|:	=25:|!|:	=25:|!|:	=25:|!|:	=25:|!|:	=25:|!|:	=25:|!|:	=25:|!|:	=25:|!|:	=25:|!|:	=25:|!|:	=25:|!|:	=25:|!|:
*>B	*	*	*>B	*	*	*>B	*	*	*>B	*	*	*>B	*	*
*M3/2	*	*	*M3/2	*	*	*M3/2	*	*	*M3/2	*	*	*M3/2	*	*
2C/	Tu	Ac-	2C/	Tu	ac-	2c\	Tu	Ac-	2e\	Tu	ac-	2g/	Tu	Ac-
2C/	Se-	-cen-	2C/	Se-	-cen-	2c\	Se-	-cen-	2e\	Se-	-cen-	2g/	Se-	-cen-
!LO:TX:t=P:problem:kreska pseudotaktowa	!	!	!LO:TX:t=P:problem:kreska pseudotaktowa	!	!	!LO:TX:t=P:problem:kreska pseudotaktowa	!	!	!LO:TX:t=P:problem:kreska pseudotaktowa	!	!	!LO:TX:t=P:problem:kreska pseudotaktowa	!	!
2C/	-pti-	-de	2C/	-pti-	-de	2c\	-pti-	-de	2e\	-pti-	-de	2g/	-pti-	-de
=26-	=26-	=26-	=26-	=26-	=26-	=26-	=26-	=26-	=26-	=26-	=26-	=26-	=26-	=26-
!	!	!	!	!	!	!	!	!	!LO:N:acc=-	!	!	!	!	!
1F	-for-	lu-	1F	-for-	lu-	1c	-for-	lu-	1fn	-for-	lu-	1a	-for-	lu-
!LO:TX:t=P:problem:kreska pseudotaktowa	!	!	!LO:TX:t=P:problem:kreska pseudotaktowa	!	!	!LO:TX:t=P:problem:kreska pseudotaktowa	!	!	!LO:TX:t=P:problem:kreska pseudotaktowa	!	!	!LO:TX:t=P:problem:kreska pseudotaktowa	!	!
2D/	-mis	-men	2D/	-mis	-men	2B\	-mis	-men	2f\	-mis	-men	2b\	-mis	-men
=27-	=27-	=27-	=27-	=27-	=27-	=27-	=27-	=27-	=27-	=27-	=27-	=27-	=27-	=27-
2.C/	mu-	sen-	2.C/	mu-	sen-	2.e\	mu-	Sen-	2.g\	mu-	ſen-	2.cc\	mu-	Sen-
4C/	-ne-	-si-	4C/	-ne-	-ſi-	4e\	-ne-	-ſi-	4g\	-ne-	-si-	4cc\	-ne-	-si-
!LO:TX:t=P:problem:kreska pseudotaktowa	!	!	!LO:TX:t=P:problem:kreska pseudotaktowa	!	!	!LO:TX:t=P:problem:kreska pseudotaktowa	!	!	!LO:TX:t=P:problem:kreska pseudotaktowa	!	!	!	!	!
2C/	-re	-b(us)	2C/	-re	-b(us)	2e\	-re	-b(us)	2g\	-re	-b(us)	2cc\	-re	-b(us)
=28-	=28-	=28-	=28-	=28-	=28-	=28-	=28-	=28-	=28-	=28-	=28-	=28-	=28-	=28-
2.G\	gi-	in-	2.G\	gi-	in-	2.d\	di-	in-	2.g\	di-	in-	2.b\	di-	in-
4G\	-gi-	-fun-	4G\	-gi-	-fun-	4d\	-gi-	-fun-	4g\	-gi-	-fun-	4b\	-gi-	-fun-
4G\	-t(us)	-de	4G\	-t(us)	-de	4B\	-t(us)	-de	4g\	-tus	-de	4b\	-t(us)	-de
!LO:TX:t=P:problem:kreska pseudotaktowa	!	!	!LO:TX:t=P:problem:kreska pseudotaktowa	!	!	!LO:TX:t=P:problem:kreska pseudotaktowa	!	!	!LO:TX:t=P:problem:kreska pseudotaktowa	!	!	!LO:TX:t=P:problem:kreska pseudotaktowa	!	!
4G\	Pa-	a-	4G\	Pa-	a-	4B\	Pa-	a-	4g\	Pa-	a-	4b\	Pa-	a-
=29-	=29-	=29-	=29-	=29-	=29-	=29-	=29-	=29-	=29-	=29-	=29-	=29-	=29-	=29-
1E	-ter-	-mo-	1E	-ter-	-mo-	1e	-ter-	-mo-	1g	-ter-	-mo-	1cc	-ter-	-mo-
!LO:TX:t=P:problem:kreska pseudotaktowa	!	!	!LO:TX:t=P:problem:kreska pseudotaktowa	!	!	!LO:TX:t=P:problem:kreska pseudotaktowa	!	!	!LO:TX:t=P:problem:kreska pseudotaktowa	!	!	!LO:TX:t=P:problem:kreska pseudotaktowa	!	!
2A\	-nae	-rem	2A\	-nae	-rem	2c\	-nae	-rem	2e\	-nae	-re(m)	2a\	-nae	-rem
=30-	=30-	=30-	=30-	=30-	=30-	=30-	=30-	=30-	=30-	=30-	=30-	=30-	=30-	=30-
1E	dex-	cor-	1E	dex-	cor-	1B	dex-	cor-	1e	dex-	cor-	1b	dex-	cor-
!	!	!	!	!	!	!	!	!	!LO:TX:t=P:problem:kreska pseudotaktowa	!	!	!	!	!
2E\	-te-	-di-	2E\	-te-	-di-	2B\	-te-	-di-	2e\	-te-	-di-	2b\	-te-	-di-
=31-	=31-	=31-	=31-	=31-	=31-	=31-	=31-	=31-	=31-	=31-	=31-	=31-	=31-	=31-
!LO:TX:t=P:problem:kreska pseudotaktowa	!	!	!LO:TX:t=P:problem:kreska pseudotaktowa	!	!	!LO:TX:t=P:problem:kreska pseudotaktowa	!	!	!LO:TX:t=P:problem:kreska pseudotaktowa	!	!	!LO:TX:t=P:problem:kreska pseudotaktowa	!	!
1.AA	-rae	-b(us)	1.AA	-rae	-b(us)	1.c#X	-rae	-b(us)	1.e	-rae	-b(us)	1.a	-rae	-bus
=32-	=32-	=32-	=32-	=32-	=32-	=32-	=32-	=32-	=32-	=32-	=32-	=32-	=32-	=32-
2F\	Tu	in-	2F\	Tu	in-	2cn\	Tu	in-	2a\	Tu	in-	2a\	tu	in-
2E\	ri-	-fir-	2E\	ri-	-fir-	2c\	ri-	-fir-	2e\	ri-	-fir-	2cc\	ri-	-fir-
!LO:TX:t=P:problem:kreska pseudotaktowa	!	!	!LO:TX:t=P:problem:kreska pseudotaktowa	!	!	!LO:TX:t=P:problem:kreska pseudotaktowa	!	!	!LO:TX:t=P:problem:kreska pseudotaktowa	!	!	!LO:TX:t=P:problem:kreska pseudotaktowa	!	!
2F\	-te	-ma	2F\	-te	-ma	2c\	-te	-ma	2a\	-te	-ma	2a\	-te	-ma
=33-	=33-	=33-	=33-	=33-	=33-	=33-	=33-	=33-	=33-	=33-	=33-	=33-	=33-	=33-
1D	pro-	no-	1D	pro-	no-	1d	pro-	no-	(2.d\	pro-	no-	1dd	pro-	no-
.	.	.	.	.	.	.	.	.	4e\)	.	.	.	.	.
!	!	!	!LO:TX:t=P:problem:kreska pseudotaktowa	!	!	!LO:TX:t=P:problem:kreska pseudotaktowa	!	!	!LO:TX:t=P:problem:kreska pseudotaktowa	!	!	!LO:TX:t=P:problem:kreska pseudotaktowa	!	!
2D/	-miſ-	-ſtri	2D/	-miſ-	-ſtri	2A/	-miſ-	-stri	2f\	-miſ-	-stri	2dd\	-miſ-	-ſtri
!	!	!	!	!	!	!LO:LB:g=original	!	!	!LO:LB:g=original	!	!	!	!	!
=34-	=34-	=34-	=34-	=34-	=34-	=34-	=34-	=34-	=34-	=34-	=34-	=34-	=34-	=34-
1A	-sum	cor-	1AA	-sum	Cor-	1A	-ſum	cor-	1e	-ſum	cor-	1dd	-sum	Cor-
!	!	!	!	!	!	!	!	!	!	!	!	!LO:TX:t=P:problem:kreska pseudotaktowa	!	!
2AA/	Pa-	-po-	2AA/	Pa-	-po-	2A/	Pa-	-po-	2e\	Pa-	-po-	2cc#X\	Pa-	-po-
=35-	=35-	=35-	=35-	=35-	=35-	=35-	=35-	=35-	=35-	=35-	=35-	=35-	=35-	=35-
!LO:TX:t=P:problem:kreska pseudotaktowa	!	!	!LO:TX:t=P:problem:kreska pseudotaktowa	!	!	!LO:TX:t=P:problem:kreska pseudotaktowa	!	!	!LO:TX:t=P:problem:kreska pseudotaktowa	!	!	!LO:TX:t=P:problem:kreska pseudotaktowa	!	!
1.D	-tris	-ris	1.D	-tris	-ris	1.A	-tris	-ris	1.f#X	-tris	-ris	1.dd	-tris	-ris,
!LO:LB:g=original	!	!	!	!	!	!	!	!	!	!	!	!LO:LB:g=original	!	!
=36-	=36-	=36-	=36-	=36-	=36-	=36-	=36-	=36-	=36-	=36-	=36-	=36-	=36-	=36-
2C/	Ser-	Vir-	2C/	Ser-	Vir-	2c\	Ser-	Vir-	2g\	Ser-	Vir-	2ee\	Ser-	vir-
2E\	-mo-	-tu-	2E/	-mo-	-tu-	2c\	-mo-	-tu-	2g\	-mo-	-tu-	2ee\	-mo-	-tu-
!LO:TX:t=P:problem:kreska pseudotaktowa	!	!	!LO:TX:t=P:problem:kreska pseudotaktowa	!	!	!	!	!	!	!	!	!LO:TX:t=P:problem:kreska pseudotaktowa	!	!
2C/	-ne	-te	2C/	-ne	-te	2c\	-ne	-te	2g\	-ne	-te	2ee\	-ne	-te
!	!	!	!LO:LB:g=original	!	!	!	!	!	!	!	!	!	!	!
=37-	=37-	=37-	=37-	=37-	=37-	=37-	=37-	=37-	=37-	=37-	=37-	=37-	=37-	=37-
1G	di-	fir-	1G	di-	fir-	1B	di-	fir-	1g	di-	fir-	1dd	di-	fir-
!LO:TX:t=P:problem:kreska pseudotaktowa	!	!	!LO:TX:t=P:problem:kreska pseudotaktowa	!	!	!LO:TX:t=P:problem:kreska pseudotaktowa	!	!	!LO:TX:t=P:problem:kreska pseudotaktowa	!	!	!LO:TX:t=P:problem:kreska pseudotaktowa	!	!
2G\	-tans	-mans	2G\	-tans	-mans	2B\	-tans	-mans	2g\	-tans	-mans	2dd\	-tans	-mans
=38-	=38-	=38-	=38-	=38-	=38-	=38-	=38-	=38-	=38-	=38-	=38-	=38-	=38-	=38-
!LO:TX:t=P:problem:kreska pseudotaktowa	!	!	!LO:TX:t=P:problem:kreska pseudotaktowa	!	!	!	!	!	!	!	!	!	!	!
!LO:N:vis=00	!	!	!LO:N:vis=00	!	!	!	!	!	!	!	!	!	!	!
00.r	.	.	00.r	.	.	2G/	Ser-	Vir-	2g\	Ser-	Vir-	2b\	Ser-	Vir-
.	.	.	.	.	.	2B\	-mo-	-tu-	2g\	-mo-	-tu-	2b\	-mo-	-tu-
!	!	!	!	!	!	!	!	!	!	!	!	!LO:TX:t=P:problem:kreska pseudotaktowa	!	!
.	.	.	.	.	.	2G/	-ne	-te	2g\	-ne	-te	2b\	-ne	-te
=39-	=39-	=39-	=39-	=39-	=39-	=39-	=39-	=39-	=39-	=39-	=39-	=39-	=39-	=39-
.	.	.	.	.	.	2.c\	di-	fir-	1e	di-	fir-	(1g	di-	fir-
.	.	.	.	.	.	4B\	.	.	.	.	.	.	.	.
!	!	!	!	!	!	!LO:TX:t=P:problem:kreska pseudotaktowa	!	!	!LO:TX:t=P:problem:kreska pseudotaktowa	!	!	!LO:TX:t=P:problem:kreska pseudotaktowa	!	!
.	.	.	.	.	.	2A/	.	.	2f#X\	-tans	-mans	2a\)	.	.
=40-	=40-	=40-	=40-	=40-	=40-	=40-	=40-	=40-	=40-	=40-	=40-	=40-	=40-	=40-
.	.	.	.	.	.	2G/	-tans	-mans	1g	gut-	per-	2b\	-tans	-mans
.	.	.	.	.	.	2.d\	gut-	per-	.	.	.	2.a\	gut-	per-
.	.	.	.	.	.	.	.	.	2f#X\	-tu-	-pe-	.	.	.
!	!	!	!	!	!	!	!	!	!	!	!	!LO:TX:t=P:problem:kreska pseudotaktowa	!	!
.	.	.	.	.	.	4d\	-tu-	-pe-	.	.	.	4a\	-tu-	-pe-
=41-	=41-	=41-	=41-	=41-	=41-	=41-	=41-	=41-	=41-	=41-	=41-	=41-	=41-	=41-
!	!	!	!	!	!	!LO:TX:t=P:problem:kreska pseudotaktowa	!	!	!LO:TX:t=P:problem:kreska pseudotaktowa	!	!	!LO:TX:t=P:problem:kreska pseudotaktowa	!	!
.	.	.	.	.	.	1.G	-ra	-ti	1.g	-ra	-ti	1.b	-ra	-ti
=42-	=42-	=42-	=42-	=42-	=42-	=42-	=42-	=42-	=42-	=42-	=42-	=42-	=42-	=42-
2C/	Ser-	Vir-	2C/	Ser-	Vir-	2c\	Ser-	Vir-	2g\	Ser-	Vir-	2ee\	Ser-	Vir-
2E\	-mo-	-tu-	2E/	-mo-	-tu-	2c\	-mo-	-tu-	2g\	-mo-	-tu-	2ee\	-mo-	-tu-
!LO:TX:t=P:problem:kreska pseudotaktowa	!	!	!LO:TX:t=P:problem:kreska pseudotaktowa	!	!	!	!	!	!LO:TX:t=P:problem:kreska pseudotaktowa	!	!	!LO:TX:t=P:problem:kreska pseudotaktowa	!	!
2C/	-ne	-te	2C/	-ne	-te	2c\	-ne	-te	2g\	-ne	-te	2ee\	-ne	-te
=43-	=43-	=43-	=43-	=43-	=43-	=43-	=43-	=43-	=43-	=43-	=43-	=43-	=43-	=43-
2.G\	di-	fir-	2.G\	di-	fir-	1B	di-	fir-	1g	di-	fir-	1dd	di-	fir-
4F\	.	.	4F\	.	.	.	.	.	.	.	.	.	.	.
!LO:TX:t=P:problem:kreska pseudotaktowa	!	!	!	!	!	!LO:TX:t=P:problem:kreska pseudotaktowa	!	!	!LO:TX:t=P:problem:kreska pseudotaktowa	!	!	!	!	!
2E\	.	.	2E\	.	.	2c\	-tans	-mans	2g\	-tans	-mans	2ee\	-tans	-mans
=44-	=44-	=44-	=44-	=44-	=44-	=44-	=44-	=44-	=44-	=44-	=44-	=44-	=44-	=44-
2F\	-tans	-mans	2F\	-tans	-mans	1c	gut-	per-	2a\	.	.	1dd	gut-	per-
2.G\	gut-	per-	2.G\	gut-	per-	.	.	.	2.g\	gut-	per-	.	.	.
.	.	.	.	.	.	2B\	-tu-	-pe-	.	.	.	2dd\	-tu-	-pe-
!LO:TX:t=P:problem:kreska pseudotaktowa	!	!	!	!	!	!	!	!	!	!	!	!	!	!
4GG/	-tu-	-pe-	4GG/	-tu-	-pe-	.	.	.	4g\	-tu-	-pe-	.	.	.
=45-	=45-	=45-	=45-	=45-	=45-	=45-	=45-	=45-	=45-	=45-	=45-	=45-	=45-	=45-
!LO:TX:a:t=P:problem:podwójna kreska taktowa, bez repetycji	!	!	!	!	!	!	!	!	!	!	!	!	!	!
1.C	-ra.	-ti.	1.C;	-ra	-ti	1.c;;	-ra	-ti	1.e;;	-ra	-ti.	1.ccny;	-ra	-ti
!	!	!	!LO:PB:g=original	!	!	!LO:PB:g=original	!	!	!LO:PB:g=original	!	!	!LO:PB:g=original	!	!
=46:|!|:	=46:|!|:	=46:|!|:	=46:|!|:	=46:|!|:	=46:|!|:	=46:|!|:	=46:|!|:	=46:|!|:	=46:|!|:	=46:|!|:	=46:|!|:	=46:|!|:	=46:|!|:	=46:|!|:
*>C	*	*	*>C	*	*	*>C	*	*	*>C	*	*	*>C	*	*
*M2/1	*	*	*M2/1	*	*	*M2/1	*	*	*M2/1	*	*	*M2/1	*	*
*met(C|)	*	*	*met(C|)	*	*	*met(C|)	*	*	*met(C|)	*	*	*met(C|)	*	*
!	!	!	!LO:TX:a:t=9	!	!	!	!	!	!LO:TX:a:t=3	!	!	!	!	!
00r	.	.	00r	.	.	00r	.	.	0r	.	.	1g	Ho-	Per
*	*	*	*	*	*	*	*	*	*	*	*	*lig	*	*
.	.	.	.	.	.	.	.	.	.	.	.	1a	-ſtem	te
=47-	=47-	=47-	=47-	=47-	=47-	=47-	=47-	=47-	=47-	=47-	=47-	=47-	=47-	=47-
!	!	!	!	!	!	!	!	!	!LO:TX:t=P:problem:kreska pseudotaktowa	!	!	!	!	!
.	.	.	.	.	.	.	.	.	1r	.	.	1g	.	.
*	*	*	*	*	*	*	*	*	*	*	*	*Xlig	*	*
!	!	!	!	!	!	!	!	!	!LO:TX:t=P:problem:kreska pseudotaktowa	!	!	!LO:TX:t=P:problem:kreska pseudotaktowa	!	!
.	.	.	.	.	.	.	.	.	1d	Ho-	Per	1f#X	.	.
=48-	=48-	=48-	=48-	=48-	=48-	=48-	=48-	=48-	=48-	=48-	=48-	=48-	=48-	=48-
!	!	!	!	!	!	!LO:TX:t=P:problem:kreska pseudotaktowa	!	!	!LO:TX:t=P:problem:kreska pseudotaktowa	!	!	!	!	!
00r	.	.	00r	.	.	0r	.	.	1e	-ſtem	Te	1g	re-	Sci-
.	.	.	.	.	.	.	.	.	1d	re-	Sci-	1a	-pel-	-a-
=49-	=49-	=49-	=49-	=49-	=49-	=49-	=49-	=49-	=49-	=49-	=49-	=49-	=49-	=49-
!	!	!	!	!	!	!	!	!	!	!	!	!LO:TX:t=P:problem:kreska pseudotaktowa	!	!
.	.	.	.	.	.	1G	Ho-	Per	2g\	-pel-	-a-	1g	-las	-m(us)
!	!	!	!	!	!	!	!	!	!LO:TX:t=P:problem:kreska pseudotaktowa	!	!	!	!	!
.	.	.	.	.	.	.	.	.	2g\	-laſ	-m(us)	.	.	.
*	*	*	*	*	*	*lig	*	*	*	*	*	*	*	*
.	.	.	.	.	.	1A	-ſtem	te	4e\	lon-	da	2.cc\	lon-	da
.	.	.	.	.	.	.	.	.	4d\	.	.	.	.	.
.	.	.	.	.	.	.	.	.	4e\	.	.	.	.	.
!	!	!	!	!	!	!	!	!	!LO:SIC:v:s=4f#	!	!	!	!	!
!	!	!	!	!	!	!	!	!	!LO:TX:t=P:problem:kreska pseudotaktowa	!	!	!	!	!
.	.	.	.	.	.	.	.	.	4f\	.	.	8b\L	.	pa-
!	!	!	!	!	!	!	!	!	!	!	!	!LO:TX:t=P:problem:kreska pseudotaktowa	!	!
.	.	.	.	.	.	.	.	.	.	.	.	8a\J	.	.
=50-	=50-	=50-	=50-	=50-	=50-	=50-	=50-	=50-	=50-	=50-	=50-	=50-	=50-	=50-
!LO:TX:t=P:problem:kreska pseudotaktowa	!	!	!LO:TX:t=P:problem:kreska pseudotaktowa	!	!	!	!	!	!	!	!	!	!	!
1r	.	.	1r	.	.	1G	.	.	2.g\	.	Pa-	4b\	.	.
.	.	.	.	.	.	.	.	.	.	.	.	4a\	.	.
.	.	.	.	.	.	.	.	.	.	.	.	4b\	.	.
!	!	!	!	!	!	!	!	!	!LO:TX:t=P:problem:kreska pseudotaktowa	!	!	!	!	!
.	.	.	.	.	.	.	.	.	4g\	-gi-	trem	4cc\	.	.
!	!	!	!	!	!	!	!	!	!	!	!	!LO:TX:t=P:problem:kreska pseudotaktowa	!	!
*	*	*	*	*	*	*Xlig	*	*	*	*	*	*	*	*
!	!	!	!LO:TX:t=P:problem:kreska pseudotaktowa	!	!	!LO:TX:t=P:problem:kreska pseudotaktowa	!	!	!	!	!	!	!	!
1D	Ho-	Per	1D	Ho-	Per	1F#X	.	.	2d\	-(us)	da	4dd\	.	.
.	.	.	.	.	.	.	.	.	.	.	.	4a\	.	.
!	!	!	!	!	!	!	!	!	!LO:TX:t=P:problem:kreska pseudotaktowa	!	!	!	!	!
.	.	.	.	.	.	.	.	.	2a\	lon-	Pa-	1dd	.	.
=51-	=51-	=51-	=51-	=51-	=51-	=51-	=51-	=51-	=51-	=51-	=51-	=51-	=51-	=51-
!LO:TX:t=P:problem:kreska pseudotaktowa	!	!	!	!	!	!	!	!	!	!	!	!	!	!
1E	-stem	Te	1E	-stem	Te	1G	re-	Sci-	4g\	.	.	.	.	.
.	.	.	.	.	.	.	.	.	4d\	.	.	.	.	.
!	!	!	!	!	!	!	!	!	!	!	!	!LO:TX:t=P:problem:kreska pseudotaktowa	!	!
.	.	.	.	.	.	.	.	.	1g	.	.	2cc#X\	-gi-	.
!	!	!	!LO:TX:t=P:problem:kreska pseudotaktowa	!	!	!	!	!	!	!	!	!LO:TX:a:t=P:problem:rozdzielacz słów:global	!	!
1D	re-	sci-	1D	re-	Sci-	1A	-pel-	-a-	.	.	.	2dd,<\	-us	-trem
!	!	!	!	!	!	!	!	!	!LO:TX:t=P:problem:kreska pseudotaktowa	!	!	!LO:TX:t=P:problem:kreska pseudotaktowa	!	!
.	.	.	.	.	.	.	.	.	2f#X\	-gi-	.	2dd\	re-	Sci-
=52-	=52-	=52-	=52-	=52-	=52-	=52-	=52-	=52-	=52-	=52-	=52-	=52-	=52-	=52-
!	!	!	!	!	!	!LO:TX:t=P:problem:kreska pseudotaktowa	!	!	!	!	!	!	!	!
2G\	-pel-	-a-	2G\	-pel-	-a-	1G	-las	-m(us)	2g\	-us	-tre(m)	2dd\	-pel-	-a-
!LO:TX:t=P:problem:kreska pseudotaktowa	!	!	!LO:TX:t=P:problem:kreska pseudotaktowa	!	!	!	!	!	!LO:TX:t=P:problem:kreska pseudotaktowa	!	!	!LO:TX:t=P:problem:kreska pseudotaktowa	!	!
2G\	-las	-m(us)	2G\	-las	-m(us)	.	.	.	2g\	re-	Sci-	2b\	-lus	-m(us)
!LO:LB:g=original	!	!	!	!	!	!	!	!	!	!	!	!	!	!
4E\	lon-	da	4E\	lon-	da	(1c	long-	da	2g\	-pel-	-a-	2.ee\	lon-	Pa-
4D\	.	.	4D\	.	.	.	.	.	.	.	.	.	.	.
!	!	!	!	!	!	!	!	!	!LO:TX:t=P:problem:kreska pseudotaktowa	!	!	!	!	!
4E\	.	.	4E\	.	.	.	.	.	2e\	-las	-m(us)	.	.	.
!LO:TX:t=P:problem:kreska pseudotaktowa	!	!	!LO:TX:t=P:problem:kreska pseudotaktowa	!	!	!	!	!	!	!	!	!	!	!
4C\	.	.	4C\	.	.	.	.	.	.	.	.	4dd\	.	.
=53-	=53-	=53-	=53-	=53-	=53-	=53-	=53-	=53-	=53-	=53-	=53-	=53-	=53-	=53-
4F\	.	.	4F\	.	.	1.d)	.	.	4a\	lon-	da	4ccny\	.	.
4E\	.	.	4E\	.	.	.	.	.	4g\	.	.	4g\	.	.
4F\	.	.	4F\	.	.	.	.	.	4a\	.	Pa-	1cc	.	.
!	!	!	!LO:TX:t=P:problem:kreska pseudotaktowa	!	!	!	!	!	!	!	!	!	!	!
4D\	.	.	4D\	.	.	.	.	.	4fny\	.	.	.	.	.
2.G\	.	.	2.G\	.	.	.	.	.	2.g\	.	.	.	.	.
!	!	!	!	!	!	!	!	!	!	!	!	!LO:TX:t=P:problem:kreska pseudotaktowa	!	!
.	.	.	.	.	.	2d\	-i-	Pa-	.	.	.	2b\	-gi-	.
!	!	!	!	!	!	!	!	!	!LO:TX:t=P:problem:kreska pseudotaktowa	!	!	!	!	!
4GG/	-gi-	Pa-	4G\	-gi-	Pa-	.	.	.	4g\	-gi-	.	.	.	.
!	!	!	!	!	!	!	!	!	!LO:LB:g=original	!	!	!	!	!
=54-	=54-	=54-	=54-	=54-	=54-	=54-	=54-	=54-	=54-	=54-	=54-	=54-	=54-	=54-
!	!	!	!	!	!	!LO:TX:t=P:problem:kreska pseudotaktowa	!	!	!	!	!	!	!	!
2C/	-us	-trem	2C/	-(us)	-trem	1c	-us	-trem	2e\	-us	-trem	2cc,<\	-us	-trem
!LO:TX:t=P:problem:kreska pseudotaktowa	!	!	!LO:TX:t=P:problem:kreska pseudotaktowa	!	!	!	!	!	!LO:TX:t=P:problem:kreska pseudotaktowa	!	!	!LO:TX:t=P:problem:kreska pseudotaktowa	!	!
2rC	.	.	2r	.	.	.	.	.	2r	.	.	2cc\	Pa-	no-
!	!	!	!LO:TX:a:t=7	!	!	!	!	!	!	!	!	!LO:TX:t=P:problem:kreska pseudotaktowa	!	!
00r	.	.	00r	.	.	00r	.	.	0r	.	.	1g	-cem-	-sca-
!	!	!	!	!	!	!	!	!	!	!	!	!LO:LB:g=original	!	!
=55-	=55-	=55-	=55-	=55-	=55-	=55-	=55-	=55-	=55-	=55-	=55-	=55-	=55-	=55-
.	.	.	.	.	.	.	.	.	.	.	.	1a	-que	-mus
!	!	!	!	!	!	!	!	!	!LO:TX:t=P:problem:kreska pseudotaktowa	!	!	!	!	!
.	.	.	.	.	.	.	.	.	1g	pa-	no-	4b\	do-	at-
.	.	.	.	.	.	.	.	.	.	.	.	4a\	.	.
.	.	.	.	.	.	.	.	.	.	.	.	4b\	.	.
!	!	!	!	!	!	!	!	!	!	!	!	!LO:TX:t=P:problem:kreska pseudotaktowa	!	!
.	.	.	.	.	.	.	.	.	.	.	.	4cc\	.	.
=56-	=56-	=56-	=56-	=56-	=56-	=56-	=56-	=56-	=56-	=56-	=56-	=56-	=56-	=56-
.	.	.	.	.	.	.	.	.	1d	-cem-	-sca-	1dd	.	.
!	!	!	!	!	!	!	!	!	!LO:TX:t=P:problem:kreska pseudotaktowa	!	!	!	!	!
0r	.	.	0r	.	.	1c	pa-	nos-	1e	-q(ue)	-m(us)	2cc\	-nes	-q(ue)
.	.	.	.	.	.	.	.	.	.	.	.	1cc	do-	at-
=57-	=57-	=57-	=57-	=57-	=57-	=57-	=57-	=57-	=57-	=57-	=57-	=57-	=57-	=57-
.	.	.	.	.	.	1G	-cem-	-ca-	2.g\	do-	at-	.	.	.
!	!	!	!	!	!	!	!	!	!	!	!	!LO:TX:t=P:problem:kreska pseudotaktowa	!	!
.	.	.	.	.	.	.	.	.	.	.	.	2b\	-nes	-q(ue)
!	!	!	!	!	!	!	!	!	!LO:TX:t=P:problem:kreska pseudotaktowa	!	!	!	!	!
.	.	.	.	.	.	.	.	.	4f\	.	.	.	.	.
!LO:TX:t=P:problem:kreska pseudotaktowa	!	!	!LO:TX:t=P:problem:kreska pseudotaktowa	!	!	!LO:TX:t=P:problem:kreska pseudotaktowa	!	!	!	!	!	!	!	!
1r	.	.	1r	.	.	1A	-q(ue)	-mus	4e\	.	.	4cc\	pro-	Fi-
.	.	.	.	.	.	.	.	.	4d\	.	.	4b\	.	.
.	.	.	.	.	.	.	.	.	4e\	.	.	4cc\	.	.
!	!	!	!	!	!	!	!	!	!LO:TX:t=P:problem:kreska pseudotaktowa	!	!	!	!	!
.	.	.	.	.	.	.	.	.	4f\	.	.	4a\	.	.
=58-	=58-	=58-	=58-	=58-	=58-	=58-	=58-	=58-	=58-	=58-	=58-	=58-	=58-	=58-
1G	Pa-	nos-	1G	pa-	nos-	4B\	do-	at-	4g\	-nes	-que	2.dd\	.	.
.	.	.	.	.	.	4A\	.	.	4d\	.	.	.	.	.
.	.	.	.	.	.	4B\	.	.	1g	pro-	Fi-	.	.	.
!	!	!	!	!	!	!LO:TX:t=P:problem:kreska pseudotaktowa	!	!	!	!	!	!	!	!
.	.	.	.	.	.	4c\	.	.	.	.	.	8cc\L	.	.
!	!	!	!	!	!	!	!	!	!	!	!	!LO:TX:t=P:problem:kreska pseudotaktowa	!	!
.	.	.	.	.	.	.	.	.	.	.	.	8b\J	.	.
!	!	!	!LO:TX:t=P:problem:kreska pseudotaktowa	!	!	!	!	!	!	!	!	!	!	!
1D	-cem-	-ca-	1D	-cem-	-ca-	2.d\	.	.	.	.	.	2.a\	.	.
!	!	!	!	!	!	!	!	!	!LO:TX:t=P:problem:kreska pseudotaktowa	!	!	!	!	!
.	.	.	.	.	.	.	.	.	2f#X\	-ti-	-li-	.	.	.
!	!	!	!	!	!	!LO:TX:t=P:problem:kreska pseudotaktowa	!	!	!	!	!	!	!	!
.	.	.	.	.	.	4c\	.	.	.	.	.	4a\	-ti-	li-
=59-	=59-	=59-	=59-	=59-	=59-	=59-	=59-	=59-	=59-	=59-	=59-	=59-	=59-	=59-
!	!	!	!	!	!	!	!	!	!	!	!	!LO:TX:t=P:problem:kreska pseudotaktowa	!	!
2E\	-que	-mus	2E\	-q(ue)	-mus	2B\	.	.	2g\	-n(us)	-u(m)	1g,<	-m(us)	-um
!	!	!	!	!	!	!	!	!	!LO:TX:t=P:problem:kreska pseudotaktowa	!	!	!	!	!
1G	do-	at-	1G	do-	at-	2B\	nes	que	2d\	pa-	nos-	.	.	.
!	!	!	!	!	!	!LO:LB:g=original	!	!	!	!	!	!	!	!
.	.	.	.	.	.	2c\	do-	Fi-	2e\	-cem-	-ca-	1a	do-	no-
!LO:TX:t=P:problem:kreska pseudotaktowa	!	!	!LO:TX:t=P:problem:kreska pseudotaktowa	!	!	!	!	!	!LO:TX:t=P:problem:kreska pseudotaktowa	!	!	!	!	!
2F#X\	-nes	-que	2F#X\	-nes	-q(ue)	2d\	-nes	.	2f#X\	-q(ue)	-m(us)	.	.	.
=60-	=60-	=60-	=60-	=60-	=60-	=60-	=60-	=60-	=60-	=60-	=60-	=60-	=60-	=60-
2E\	pro-	Fi-	2E\	pro-	Fi-	2B\	pro-	.	2g\	do-	at-	2g/	-nes	-sca-
!	!	!	!LO:TX:t=P:problem:kreska pseudotaktowa	!	!	!	!	!	!	!	!	!	!	!
!	!	!	!LO:SIC:v:t=custos D	!	!	!LO:TX:t=P:problem:kreska pseudotaktowa	!	!	!LO:TX:t=P:problem:kreska pseudotaktowa	!	!	!	!	!
2C/	.	.	2C/	.	.	2c\	.	.	2e\	-nes	-q(ue)	1g	pro-	-m(us)
!	!	!	!LO:LB:g=original	!	!	!	!	!	!	!	!	!	!	!
2.D\	.	.	2.D/	.	.	2.A/	.	.	2.d\	pro-	Fi-	.	.	.
!	!	!	!	!	!	!	!	!	!	!	!	!LO:TX:a:t=P:problem:# above	!	!
.	.	.	.	.	.	.	.	.	.	.	.	2f#X/	-ti-	Fi-
!LO:TX:t=P:problem:kreska pseudotaktowa	!	!	!LO:TX:t=P:problem:kreska pseudotaktowa	!	!	!	!	!	!	!	!	!	!	!
4D\	-ti-	-li-	4D/	-ti-	-li-	4A/	-ti-	-li-	4d\	-ti-	-li-	.	.	.
=61-	=61-	=61-	=61-	=61-	=61-	=61-	=61-	=61-	=61-	=61-	=61-	=61-	=61-	=61-
!	!	!	!	!	!	!LO:TX:t=P:problem:kreska pseudotaktowa	!	!	!LO:TX:t=P:problem:kreska pseudotaktowa	!	!	!LO:TX:t=P:problem:kreska pseudotaktowa	!	!
2GG,</	-nus	-um	2GG/	-n(us)	-um	1B	-n(us)	-um	1d	-n(us)	-u(m)	1g	-n(us)	-liu(m)
2G\	Du-	Te-	2G\	Du-	Te-	.	.	.	.	.	.	.	.	.
2A\	-cto-	-que	2A\	-cto-	-[que]	1c	Du-	Te	0r	.	.	0r	.	.
!LO:TX:t=P:problem:kreska pseudotaktowa	!	!	!LO:TX:t=P:problem:kreska pseudotaktowa	!	!	!	!	!	!	!	!	!	!	!
2A\	-re	u-	2A\	-re	v-	.	.	.	.	.	.	.	.	.
=62-	=62-	=62-	=62-	=62-	=62-	=62-	=62-	=62-	=62-	=62-	=62-	=62-	=62-	=62-
*	*	*	*	*	*	*lig	*	*	*	*	*	*	*	*
2.B\	sic	-tri-	2.B\	Sic	-tri-	1d	-cto-	V-	.	.	.	.	.	.
4A\	.	.	4A\	.	.	.	.	.	.	.	.	.	.	.
!	!	!	!	!	!	!	!	!	!	!	!	!LO:TX:t=P:problem:kreska pseudotaktowa	!	!
2G\	Te	-us-	2G\	Te	-us-	1e	.	.	1g	du-	Te	1r	.	.
!LO:TX:t=P:problem:kreska pseudotaktowa	!	!	!LO:TX:t=P:problem:kreska pseudotaktowa	!	!	!	!	!	!	!	!	!	!	!
2E\	.	-que	2E\	.	-que	.	.	.	.	.	.	.	.	.
*	*	*	*	*	*	*Xlig	*	*	*	*	*	*	*	*
=63-	=63-	=63-	=63-	=63-	=63-	=63-	=63-	=63-	=63-	=63-	=63-	=63-	=63-	=63-
*	*	*	*	*	*	*lig	*	*	*	*	*	*	*	*
!LO:TX:t=P:problem:kreska pseudotaktowa	!	!	!	!	!	!	!	!	!	!	!	!	!	!
1A	prae-	Spi-	1A	prae-	Spi-	1c	-re	-tri-	2a\	-cto-	v-	1cc	Du-	Te-
!	!	!	!	!	!	!	!	!	!LO:TX:t=P:problem:kreska pseudotaktowa	!	!	!	!	!
.	.	.	.	.	.	.	.	.	2a\	-re	-tri-	.	.	.
!LO:LB:g=original	!	!	!	!	!	!	!	!	!	!	!	!	!	!
2D\	.	.	2D/	.	.	1B	.	.	2.b\	Sic	-us-	2dd\	-cto-	-[que]
!	!	!	!	!	!	!	!	!	!	!	!	!LO:TX:t=P:problem:kreska pseudotaktowa	!	!
1G	.	.	1G	.	.	.	.	.	.	.	.	2dd\	-re	u-
!	!	!	!	!	!	!	!	!	!LO:TX:t=P:problem:kreska pseudotaktowa	!	!	!	!	!
.	.	.	.	.	.	.	.	.	4a\	te	-q(ue)	.	.	.
*	*	*	*	*	*	*Xlig	*	*	*	*	*	*	*	*
=64-	=64-	=64-	=64-	=64-	=64-	=64-	=64-	=64-	=64-	=64-	=64-	=64-	=64-	=64-
!	!	!	!	!	!	!LO:TX:t=P:problem:kreska pseudotaktowa	!	!	!	!	!	!	!	!
.	.	.	.	.	.	1A	sic	-us-	2g\	prae-	Spi-	2ee\	sic	-trius-
!LO:TX:t=P:problem:kreska pseudotaktowa	!	!	!LO:TX:t=P:problem:kreska pseudotaktowa	!	!	!	!	!	!LO:TX:t=P:problem:kreska pseudotaktowa	!	!	!	!	!
2F#X\	-vi-	-ri-	2F#X\	-vi-	-ri-	.	.	.	2a\	.	.	1cc	te	-que
!	!	!	!	!	!	!	!	!	!LO:LB:g=original	!	!	!	!	!
!LO:TX:t=P:problem:kreska pseudotaktowa	!	!	!LO:TX:t=P:problem:kreska pseudotaktowa	!	!	!	!	!	!	!	!	!	!	!
1G	-o,	-tum	1G	-o	-tu(m)	1G	Te	-q(ue)	2d\	.	.	.	.	.
.	.	.	.	.	.	.	.	.	1g	.	.	2b\	.	.
!	!	!	!	!	!	!	!	!	!	!	!	!LO:LB:g=original	!	!
=65-	=65-	=65-	=65-	=65-	=65-	=65-	=65-	=65-	=65-	=65-	=65-	=65-	=65-	=65-
!	!	!	!	!	!	!	!	!	!	!	!	!LO:TX:t=P:problem:kreska pseudotaktowa	!	!
2r	.	.	2r	.	.	2.d\	prae-	Spi-	.	.	.	1a	.	.
!LO:TX:t=P:problem:kreska pseudotaktowa	!	!	!	!	!	!	!	!	!	!	!	!	!	!
2D\	vi-	cre-	2D/	Vi-	Cre-	.	.	.	2f#X\	-ui-	-ri-	.	.	.
.	.	.	.	.	.	4d\	-vi-	-ri-	.	.	.	.	.	.
!	!	!	!	!	!	!	!	!	!LO:TX:t=P:problem:kreska pseudotaktowa	!	!	!	!	!
2G\	-te-	-da-	2G\	-te-	-da-	2G/	-o	-tum	1g	-o	-tu(m)	4b\	prae-	Spi-
.	.	.	.	.	.	.	.	.	.	.	.	4a\	.	.
!LO:TX:t=P:problem:kreska pseudotaktowa	!	!	!LO:TX:t=P:problem:kreska pseudotaktowa	!	!	!LO:TX:t=P:problem:kreska pseudotaktowa	!	!	!	!	!	!	!	!
2G\	-m(us)	-mus	2G\	-m(us)	-m(us)	2G/	Vi-	Cre-	.	.	.	4b\	.	.
!	!	!	!	!	!	!	!	!	!	!	!	!LO:TX:t=P:problem:kreska pseudotaktowa	!	!
.	.	.	.	.	.	.	.	.	.	.	.	4g\	.	.
=66-	=66-	=66-	=66-	=66-	=66-	=66-	=66-	=66-	=66-	=66-	=66-	=66-	=66-	=66-
4F#X\	o-	o-	4F#X\	o-	o-	2d\	-te-	-da-	2r	.	.	2.a\	.	.
4E\	.	.	4E\	.	.	.	.	.	.	.	.	.	.	.
!	!	!	!	!	!	!	!	!	!LO:TX:t=P:problem:kreska pseudotaktowa	!	!	!	!	!
4F#\	.	.	4F#\	.	.	2d\	-m(us)	-m(us)	2d\	Ui-	Cre-	.	.	.
4D\	.	.	4D\	.	.	.	.	.	.	.	.	4a\	-vi-	-ri-
1E	.	.	1E	.	.	2d\	o-	o-	2g\	-te-	-da-	2g/	-o	-tum
!	!	!	!	!	!	!	!	!	!	!	!	!LO:TX:t=P:problem:kreska pseudotaktowa	!	!
.	.	.	.	.	.	2c#X\	.	.	2g\	-m(us)	-m(us)	2g/	vi-	cre-
=67-	=67-	=67-	=67-	=67-	=67-	=67-	=67-	=67-	=67-	=67-	=67-	=67-	=67-	=67-
!LO:TX:t=P:problem:kreska pseudotaktowa	!	!	!LO:TX:t=P:problem:kreska pseudotaktowa	!	!	!LO:TX:t=P:problem:kreska pseudotaktowa	!	!	!	!	!	!	!	!
1D	-mne	-mni	1D	-mne	-mni	1d	-mne	-mni	4f#X\	o-	o-	2dd\	-te-	-da-
.	.	.	.	.	.	.	.	.	4e\	.	.	.	.	.
.	.	.	.	.	.	.	.	.	4f#\	.	.	2dd\	-m(us)	-m(us)
!	!	!	!	!	!	!	!	!	!LO:TX:t=P:problem:kreska pseudotaktowa	!	!	!	!	!
.	.	.	.	.	.	.	.	.	4d\	.	.	.	.	.
!	!	!	!	!	!	!LO:TX:a:t=3	!	!	!LO:TX:t=P:problem:kreska pseudotaktowa	!	!	!	!	!
1rA	.	.	1r	.	.	0r	.	.	1e	.	.	2dd\	o-	om-
.	.	.	.	.	.	.	.	.	.	.	.	2cc#X\	-mne	-ni
=68-	=68-	=68-	=68-	=68-	=68-	=68-	=68-	=68-	=68-	=68-	=68-	=68-	=68-	=68-
!	!	!	!	!	!	!	!	!	!	!	!	!LO:TX:a:t=P:problem:zamazane takty z podpisanym tekstem	!	!
!	!	!	!	!	!	!	!	!	!LO:TX:t=P:problem:kreska pseudotaktowa	!	!	!LO:TX:a:t=vi-	!	!
2r	.	.	2r	.	.	.	.	.	1d	-mne	-mni	2dd\	.	.
!	!	!	!	!	!	!	!	!	!	!	!	!LO:TX:t=P:problem:kreska pseudotaktowa	!	!
!	!	!	!LO:TX:t=P:problem:kreska pseudotaktowa	!	!	!	!	!	!	!	!	!LO:TX:a:t=de.	!	!
2G\	vi-	cre-	2GG/	Vi-	Cre-	.	.	.	.	.	.	2b\	no-	tem-
2D\	-te-	-da-	2D/	-te-	-da-	1r	.	.	2r	.	.	2.a\	.	.
!LO:TX:t=P:problem:kreska pseudotaktowa	!	!	!LO:TX:t=P:problem:kreska pseudotaktowa	!	!	!	!	!	!LO:TX:t=P:problem:kreska pseudotaktowa	!	!	!	!	!
2D\	-m(us)	-m(us)	2D/	-m(us)	-m(us)	.	.	.	2d\	Vi-	Cre-	.	.	.
.	.	.	.	.	.	.	.	.	.	.	.	4a\	-xi-	-po-
=69-	=69-	=69-	=69-	=69-	=69-	=69-	=69-	=69-	=69-	=69-	=69-	=69-	=69-	=69-
!	!	!	!	!	!	!	!	!	!	!	!	!LO:TX:t=P:problem:kreska pseudotaktowa	!	!
4BB/	o-	o-	4BB/	o-	o-	2r	.	.	2g\	-te-	-da-	1b	-um	-re
4AA/	.	.	4AA/	.	.	.	.	.	.	.	.	.	.	.
!	!	!	!	!	!	!LO:TX:t=P:problem:kreska pseudotaktowa	!	!	!LO:TX:t=P:problem:kreska pseudotaktowa	!	!	!	!	!
4BB/	.	.	4BB/	.	.	2G/	Vi-	Cre-	2g\	-m(us)	-m(us)	.	.	.
!LO:TX:t=P:problem:kreska pseudotaktowa	!	!	!LO:TX:t=P:problem:kreska pseudotaktowa	!	!	!	!	!	!	!	!	!	!	!
4GG/	.	.	4GG/	.	.	.	.	.	.	.	.	.	.	.
!	!	!	!LO:LB:g=original	!	!	!	!	!	!	!	!	!	!	!
!	!	!	!LO:TX:t=P:problem:kreska pseudotaktowa	!	!	!	!	!	!	!	!	!	!	!
1AA	.	.	1AA	.	.	2cny\	-te-	-da-	(2g\	o-	o-	2r	.	.
!	!	!	!	!	!	!	!	!	!	!	!	!LO:TX:t=P:problem:kreska pseudotaktowa	!	!
.	.	.	.	.	.	2c\	-m(us)	-m(us)	2f#X\)	.	.	2a\	vi-	cre-
!	!	!	!	!	!	!LO:LB:g=original	!	!	!	!	!	!	!	!
=70-	=70-	=70-	=70-	=70-	=70-	=70-	=70-	=70-	=70-	=70-	=70-	=70-	=70-	=70-
2GG/	-mne	mni	2GG/	-mne	mni	4B\	o-	o-	2g\	-mne	-mni	2dd\	-te-	-da-
.	.	.	.	.	.	4A\	.	.	.	.	.	.	.	.
!	!	!	!LO:TX:t=P:problem:przekreślona synkopowana wartość	!	!	!	!	!	!	!	!	!	!	!
1BB	peſ-	Tem-	1BB	no-	tem-	4B\	.	.	1d	o-	.	2dd\	-mus	-mus
!	!	!	!	!	!	!LO:TX:t=P:problem:kreska pseudotaktowa	!	!	!	!	!	!	!	!
.	.	.	.	.	.	4G/	.	.	.	.	.	.	.	.
.	.	.	.	.	.	2d\	.	.	.	.	.	1g	om-	om-
!	!	!	!LO:TX:t=P:problem:przekreślona synkopowana wartość	!	!	!	!	!	!LO:TX:t=P:problem:kreska pseudotaktowa	!	!	!	!	!
1C	.	.	1C	.	.	2G/	-mne	-mni	[2e\	.	tem-	.	.	.
=71-	=71-	=71-	=71-	=71-	=71-	=71-	=71-	=71-	=71-	=71-	=71-	=71-	=71-	=71-
!	!	!	!	!	!	!	!	!	!	!	!	!LO:TX:t=P:problem:kreska pseudotaktowa	!	!
.	.	.	.	.	.	2c\	no-	tem-	2e\]	.	.	1a	-ne	-ni
!	!	!	!LO:TX:t=P:problem:przekreślona synkopowana wartość	!	!	!	!	!	!	!	!	!	!	!
1D	.	.	1D	.	.	2A/	.	.	1f#X	.	.	.	.	.
.	.	.	.	.	.	2d\	.	.	.	.	.	2b\	om-	om-
!	!	!	!LO:TX:t=P:problem:kreska pseudotaktowa	!	!	!LO:TX:t=P:problem:kreska pseudotaktowa	!	!	!	!	!	!LO:TX:t=P:problem:kreska pseudotaktowa	!	!
2E\	.	.	2E\	.	.	2c\	.	.	2e\	-mne	.	2ccny\	-ne	-ni
=72-	=72-	=72-	=72-	=72-	=72-	=72-	=72-	=72-	=72-	=72-	=72-	=72-	=72-	=72-
1.D	.	.	1.D	.	.	1.d	.	.	2f#X\	no-	.	2a\	no-	tem-
.	.	.	.	.	.	.	.	.	1g	.	.	2b\	.	.
.	.	.	.	.	.	.	.	.	.	.	.	2.a\	.	.
2D/	-si-	-po-	2D/	-xi-	-po-	2d\	-xi-	-po-	2f#X\	-xi-	-po-	.	.	.
.	.	.	.	.	.	.	.	.	.	.	.	4a\	-xi-	po-
=73-	=73-	=73-	=73-	=73-	=73-	=73-	=73-	=73-	=73-	=73-	=73-	=73-	=73-	=73-
!LO:TX:a:t=P:problem:podwójna kreska taktowa, bez repetycji	!	!	!	!	!	!	!	!	!	!	!	!LO:TX:a:t=P:problem:we fragmencie "-de" kreska podwójna, po wykreślonych taktach podwójna repetycja	!	!
0GGl;	-mum	-re	0GGl;;	-u(m).	-re.	0dl;;	-um	-re	0gl;;	-u(m).	-re.	0b;;	-um	-re
!LO:LB:g=original	!	!	!LO:LB:g=original	!	!	!LO:LB:g=original	!	!	!LO:LB:g=original	!	!	!LO:LB:g=original	!	!
=74:|!|:	=74:|!|:	=74:|!|:	=74:|!|:	=74:|!|:	=74:|!|:	=74:|!|:	=74:|!|:	=74:|!|:	=74:|!|:	=74:|!|:	=74:|!|:	=74:|!|:	=74:|!|:	=74:|!|:
*>D	*	*	*>D	*	*	*>D	*	*	*>D	*	*	*>D	*	*
*M3/2	*	*	*M3/2	*	*	*M3/2	*	*	*M3/2	*	*	*M3/2	*	*
2C/	DE-	.	2C/	De-	.	2c\	De-	.	2e\	De-	.	2g/	De-	.
2C/	-O	.	2C/	-o	.	2c\	-o	.	2e\	-o	.	2g/	-o	.
!	!	!	!LO:TX:t=P:problem:kreska pseudotaktowa	!	!	!LO:TX:t=P:problem:kreska pseudotaktowa	!	!	!LO:TX:t=P:problem:kreska pseudotaktowa	!	!	!LO:TX:t=P:problem:kreska pseudotaktowa	!	!
2C/	Pa-	.	2C/	Pa-	.	2c\	Pa-	.	2e\	Pa-	.	2g/	Pa-	.
=75-	=75-	=75-	=75-	=75-	=75-	=75-	=75-	=75-	=75-	=75-	=75-	=75-	=75-	=75-
!	!	!	!	!	!	!	!	!	!LO:N:acc=-	!	!	!	!	!
1F	-tri	.	1F	-tri	.	1c	-tri	.	1fn	-tri	.	1a	-tri	.
!LO:TX:t=P:problem:kreska pseudotaktowa	!	!	!LO:TX:t=P:problem:kreska pseudotaktowa	!	!	!LO:TX:t=P:problem:kreska pseudotaktowa	!	!	!LO:TX:t=P:problem:kreska pseudotaktowa	!	!	!LO:TX:t=P:problem:kreska pseudotaktowa	!	!
2D\	sit	.	2D/	Sit	.	2B\	Sit	.	2f\	sit	.	2b\	ſit	.
=76-	=76-	=76-	=76-	=76-	=76-	=76-	=76-	=76-	=76-	=76-	=76-	=76-	=76-	=76-
2.C/	glo-	.	2.C/	glo-	.	2.e\	glo-	.	2.g\	glo-	.	2.cc\	glo-	.
4C/	-ri-	.	4C/	-ri-	.	4e\	-ri-	.	4g\	-ri-	.	4cc\	-ri-	.
!LO:TX:t=P:problem:kreska pseudotaktowa	!	!	!LO:TX:t=P:problem:kreska pseudotaktowa	!	!	!LO:TX:t=P:problem:kreska pseudotaktowa	!	!	!LO:TX:t=P:problem:kreska pseudotaktowa	!	!	!LO:TX:t=P:problem:kreska pseudotaktowa	!	!
2C/	-a	.	2C/	-a	.	2e\	-a	.	2g\	-a	.	2cc\	-a	.
=77-	=77-	=77-	=77-	=77-	=77-	=77-	=77-	=77-	=77-	=77-	=77-	=77-	=77-	=77-
2G\	et	.	2G\	e-	et	2d\	e-	et	2g\	e-	et	2b\	e-	et
2G\	Fi-	.	2G\	-i(us)-	Fi-	2d\	-i(us)-	Fi-	2g\	-jus-	Fi-	2b\	-i(us)-	Fi-
!LO:TX:t=P:problem:kreska pseudotaktowa	!	!	!	!	!	!	!	!	!	!	!	!	!	!
2G\	-lio	.	2G\	-q(ue)	-lio	2B\	-q(ue)	-lio	2g\	-q(ue)	-lio	2b\	-q(ae)	-lio
=78-	=78-	=78-	=78-	=78-	=78-	=78-	=78-	=78-	=78-	=78-	=78-	=78-	=78-	=78-
1E	qui	.	1E	So-	qui	1e	So-	qui	1g	so-	qui	1cc	So-	qui
!LO:TX:t=P:problem:kreska pseudotaktowa	!	!	!LO:TX:t=P:problem:kreska pseudotaktowa	!	!	!LO:TX:t=P:problem:kreska pseudotaktowa	!	!	!LO:TX:t=P:problem:kreska pseudotaktowa	!	!	!LO:TX:t=P:problem:kreska pseudotaktowa	!	!
2A\	à	.	2A\	-li	à	2c\	-li	à	2e\	-li	à	2a\	-li	à
=79-	=79-	=79-	=79-	=79-	=79-	=79-	=79-	=79-	=79-	=79-	=79-	=79-	=79-	=79-
1E	mor-	.	1E	Fi-	mor-	1B	Fi-	mor-	1e	Fi-	mor-	1b	Fi-	mor-
2E\	-tu-	.	2E\	-li-	-tu-	2B\	-li-	-tu-	2e\	-li-	-tu-	2b\	-li-	-tu-
=80-	=80-	=80-	=80-	=80-	=80-	=80-	=80-	=80-	=80-	=80-	=80-	=80-	=80-	=80-
!LO:TX:t=P:problem:kreska pseudotaktowa	!	!	!LO:TX:t=P:problem:kreska pseudotaktowa	!	!	!LO:TX:t=P:problem:kreska pseudotaktowa	!	!	!LO:TX:t=P:problem:kreska pseudotaktowa	!	!	!LO:TX:t=P:problem:kreska pseudotaktowa	!	!
1.AA	-is	.	1.AA	-o	-is	1.c#X	-o	-is	1.e	-o	-is	1.a	-o	-is
=81-	=81-	=81-	=81-	=81-	=81-	=81-	=81-	=81-	=81-	=81-	=81-	=81-	=81-	=81-
!LO:N:vis=0	!	!	!LO:N:vis=0	!	!	!LO:TX:a:t=P:problem:♮ above	!	!	!	!	!	!	!	!
0.r	.	.	0.r	.	.	2Fn/	cu(m)	Sur-	2f\	cu(m)	Sur-	2a\	et	Sur-
.	.	.	.	.	.	2A/	Spi-	-re-	2f\	Spi-	-re-	2a\	Spi-	-re-
!	!	!	!	!	!	!LO:TX:t=P:problem:kreska pseudotaktowa	!	!	!LO:TX:t=P:problem:kreska pseudotaktowa	!	!	!LO:TX:t=P:problem:kreska pseudotaktowa	!	!
.	.	.	.	.	.	2F/	-ri-	-xit	2f\	-ri-	-xit	2a\	-ri-	-xit
=82-	=82-	=82-	=82-	=82-	=82-	=82-	=82-	=82-	=82-	=82-	=82-	=82-	=82-	=82-
.	.	.	.	.	.	1A	-tu	ac	1f	-tu	ac	1a	-tu	ac
!	!	!	!	!	!	!	!	!	!LO:TX:t=P:problem:kreska pseudotaktowa	!	!	!LO:TX:t=P:problem:kreska pseudotaktowa	!	!
.	.	.	.	.	.	2B-X\	Pa-	Pa-	2d\	Pa-	Pa-	2a\	Pa-	Pa-
=83-	=83-	=83-	=83-	=83-	=83-	=83-	=83-	=83-	=83-	=83-	=83-	=83-	=83-	=83-
!LO:TX:t=P:problem:kreska pseudotaktowa	!	!	!LO:TX:t=P:problem:kreska pseudotaktowa	!	!	!	!	!	!	!	!	!	!	!
1.r	.	.	1.r	.	.	2.cny\	-ra-	-ra-	2.e\	-ra-	-ra-	2.g/	-ra-	-ra-
.	.	.	.	.	.	4c\	-cli-	-cli-	4e\	-cli-	-cli-	4g/	-cli-	-cli-
!	!	!	!	!	!	!LO:TX:t=P:problem:kreska pseudotaktowa	!	!	!	!	!	!LO:TX:t=P:problem:kreska pseudotaktowa	!	!
.	.	.	.	.	.	2c\	-to	-to	2e\	-to	-to	2g/	-to	-to
!	!	!	!	!	!	!LO:LB:g=original	!	!	!LO:LB:g=original	!	!	!	!	!
=84-	=84-	=84-	=84-	=84-	=84-	=84-	=84-	=84-	=84-	=84-	=84-	=84-	=84-	=84-
2C/	in	.	2C/	in	.	2c\	in	.	2e\	in	.	2ee\	in	.
2E\	sae-	.	2E\	Se-	.	2c\	Se-	.	2e\	Sa-	.	2ee\	Sae-	.
!LO:TX:t=P:problem:kreska pseudotaktowa	!	!	!LO:TX:t=P:problem:kreska pseudotaktowa	!	!	!	!	!	!LO:TX:t=P:problem:kreska pseudotaktowa	!	!	!LO:TX:t=P:problem:kreska pseudotaktowa	!	!
2C/	-cu-	.	2C/	-cu-	.	2c\	-cu-	.	2e\	-cu-	.	2ee\	-cu-	.
!	!	!	!	!	!	!	!	!	!	!	!	!LO:LB:g=original	!	!
=85-	=85-	=85-	=85-	=85-	=85-	=85-	=85-	=85-	=85-	=85-	=85-	=85-	=85-	=85-
2.F\	-lo-	.	2.F\	-lo-	.	1A	-lo-	.	1f	-lo-	.	1cc	-lo-	.
4E\	.	.	4E\	.	.	.	.	.	.	.	.	.	.	.
!LO:TX:t=P:problem:kreska pseudotaktowa	!	!	!LO:TX:t=P:problem:kreska pseudotaktowa	!	!	!LO:TX:t=P:problem:kreska pseudotaktowa	!	!	!LO:TX:t=P:problem:kreska pseudotaktowa	!	!	!LO:TX:t=P:problem:kreska pseudotaktowa	!	!
!	!	!	!LO:SIC:v:t=custos C	!	!	!	!	!	!	!	!	!	!	!
2D\	.	.	2D/	.	.	2Bn\	-rum	.	2f\	-rum	.	2dd\	-ru(m)	.
!LO:LB:g=original	!	!	!LO:LB:g=original	!	!	!	!	!	!	!	!	!	!	!
=86-	=86-	=86-	=86-	=86-	=86-	=86-	=86-	=86-	=86-	=86-	=86-	=86-	=86-	=86-
2C/	-rum	.	2C/	-su(m)	.	1c	Se-	.	2c/	.	.	2ee\	Sae-	.
2G\	sae-	.	2.G\	Se-	.	.	.	.	2.d\	Se-	.	2.dd\	.	.
2GG/	-cu-	.	.	.	.	2B\	-cu-	.	.	.	.	.	.	.
!	!	!	!LO:TX:t=P:problem:kreska pseudotaktowa	!	!	!	!	!	!LO:TX:t=P:problem:kreska pseudotaktowa	!	!	!LO:TX:t=P:problem:kreska pseudotaktowa	!	!
.	.	.	4G\	-cu-	.	.	.	.	4d\	-cu-	.	4dd\	-cu-	.
=87-	=87-	=87-	=87-	=87-	=87-	=87-	=87-	=87-	=87-	=87-	=87-	=87-	=87-	=87-
!LO:TX:t=P:problem:kreska pseudotaktowa	!	!	!LO:TX:t=P:problem:kreska pseudotaktowa	!	!	!LO:TX:t=P:problem:kreska pseudotaktowa	!	!	!LO:TX:t=P:problem:kreska pseudotaktowa	!	!	!LO:TX:t=P:problem:kreska pseudotaktowa	!	!
1.C	-la	.	1.C	-la	.	1.c	-la	.	1.e	-la	.	1.cc	-la	.
=88-	=88-	=88-	=88-	=88-	=88-	=88-	=88-	=88-	=88-	=88-	=88-	=88-	=88-	=88-
*	*ij	*	*	*	*	*	*	*	*	*	*	*	*	*
2GG/	in	.	2GG/	in	.	2B\	in	.	2g\	in	.	2dd\	in	.
2BB/	sae-	.	2BB/	Se-	.	2B\	Se-	.	2g\	Se-	.	2dd\	Sae-	.
!LO:TX:t=P:problem:kreska pseudotaktowa	!	!	!	!	!	!	!	!	!LO:TX:t=P:problem:kreska pseudotaktowa	!	!	!LO:TX:t=P:problem:kreska pseudotaktowa	!	!
2GG/	-cu-	.	2GG/	-cu-	.	2B\	-cu-	.	2g\	-cu-	.	2dd\	-cu-	.
=89-	=89-	=89-	=89-	=89-	=89-	=89-	=89-	=89-	=89-	=89-	=89-	=89-	=89-	=89-
2.C/	-lo-	.	2.C/	-lo-	.	1c	-lo-	.	1e	-lo-	.	2.ee\	-lo-	.
4BB/	.	.	4BB/	.	.	.	.	.	.	.	.	4dd\	.	.
!LO:TX:t=P:problem:kreska pseudotaktowa	!	!	!LO:TX:t=P:problem:kreska pseudotaktowa	!	!	!	!	!	!	!	!	!LO:TX:t=P:problem:kreska pseudotaktowa	!	!
2AA/	.	.	2AA/	.	.	2c\	-ru(m)	.	2a\	-ru(m)	.	2cc\	.	.
=90-	=90-	=90-	=90-	=90-	=90-	=90-	=90-	=90-	=90-	=90-	=90-	=90-	=90-	=90-
2GG/	-rum	.	2GG/	-ru(m)	.	2G/	Se-	.	1d	Sae-	.	2b\	ru(m)	.
2.D\	sae-	.	2.D/	Se-	.	2.A/	.	.	.	.	.	2.a\	Sae-	.
.	.	.	.	.	.	.	.	.	2d\	-cu-	.	.	.	.
4D\	-cu-	.	4D/	-cu-	.	4A/	-cu-	.	.	.	.	4a\	-cu-	.
=91-	=91-	=91-	=91-	=91-	=91-	=91-	=91-	=91-	=91-	=91-	=91-	=91-	=91-	=91-
1.GG	-la	.	1.GG	-la	.	1.B	-la	.	1.d	-la	.	1.g	-la.	.
*	*Xij	*	*	*	*	*	*	*	*	*	*	*	*	*
=92||	=92||	=92||	=92||	=92||	=92||	=92||	=92||	=92||	=92||	=92||	=92||	=92||	=92||	=92||
!	!	!	!	!	!	!	!	!	!	!	!	!LO:N:vis=1	!	!
1.C	a-	.	1.C	A-	.	1.c	a-	.	1.e	am-	.	1.g	A-	.
=93-	=93-	=93-	=93-	=93-	=93-	=93-	=93-	=93-	=93-	=93-	=93-	=93-	=93-	=93-
1.GGl;	-men.	.	1.GGl;;	-men.	.	1.Bl;;	-men	.	1.dl;;	-en.	.	1.gl;;	-men.	.
==	==	==	==	==	==	==	==	==	==	==	==	==	==	==
*-	*-	*-	*-	*-	*-	*-	*-	*-	*-	*-	*-	*-	*-	*-
!!!system-decoration: [(s1,s2,s3,s4]s5
!!!RDF**kern: < = below
!!!RDF**kern: l = terminal long
!!!ENC: Marta Lawrence
!!!END: 2021-04-11
!!!ENC: Krzysztof Stępień
!!!END: 2021-03-16
